;This Gcode has been generated specifically for the LulzBot Mini
;Basic settings: Layer height: 0.38 Walls: 1 Fill: 20
;Filament Diameter: 2.85
;Nozzle Size: 0.5
G26                          ; clear potential 'probe fail' condition
G21                          ; metric values
G90                          ; absolute positioning
M82                          ; set extruder to absolute mode
M107                         ; start with the fan off
G92 E0                       ; set extruder position to 0
M140 S60; get bed heating up
G28                          ; home all
M109 R140                    ; set to cleaning temp and wait
G1 Z150 E-30 F75             ; suck up XXmm of filament
M109 R140                    ; heat up rest of way
G1 X45 Y174 F11520           ; move behind scraper
G1 Z0  F1200                 ; CRITICAL: set Z to height of top of scraper
G1 X45 Y174 Z-.5 F4000       ; wiping ; plunge into wipe pad
G1 X55 Y172 Z-.5 F4000       ; wiping
G1 X45 Y174 Z0 F4000         ; wiping
G1 X55 Y172 F4000            ; wiping
G1 X45 Y174 F4000            ; wiping
G1 X55 Y172 F4000            ; wiping
G1 X45 Y174 F4000            ; wiping
G1 X55 Y172 F4000            ; wiping
G1 X60 Y174 F4000            ; wiping
G1 X80 Y172 F4000            ; wiping
G1 X60 Y174 F4000            ; wiping
G1 X80 Y172 F4000            ; wiping
G1 X60 Y174 F4000            ; wiping
G1 X90 Y172 F4000            ; wiping
G1 X80 Y174 F4000            ; wiping
G1 X100 Y172 F4000           ; wiping
G1 X80 Y174 F4000            ; wiping
G1 X100 Y172 F4000           ; wiping
G1 X80 Y174 F4000            ; wiping
G1 X100 Y172 F4000           ; wiping
G1 X110 Y174 F4000           ; wiping
G1 X100 Y172 F4000           ; wiping
G1 X110 Y174 F4000           ; wiping
G1 X100 Y172 F4000           ; wiping
G1 X110 Y174 F4000           ; wiping
G1 X115 Y172 Z-0.5 F1000     ; wipe slower and bury noz in cleanish area
G1 Z10                       ; raise z
G28 X0 Y0                    ; home x and y
M109 R140                    ; set to probing temp
M204 S300                    ; Set probing acceleration
G29                          ; Probe
M204 S2000                   ; Restore standard acceleration
G1 X5 Y15 Z10 F5000          ; get out the way
G4 S1                        ; pause
M400                         ; clear buffer
M109 R205    ; set extruder temp and wait
G4 S15                       ; wait for bed to temp up
G1 Z2 E0 F75                 ; extrude filament back into nozzle
M140 S60; get bed temping up during first layer

;Layer count: 31
;LAYER:0
M107
G0 F10500 X17.548 Y13.947 Z0.425
;TYPE:SKIRT
G1 F900 X138.508 Y13.947 E5.03653
G1 X144.171 Y13.945 E5.27232
G1 X144.171 Y140.178 E10.52841
G1 X17.548 Y140.178 E15.80073
G1 X17.548 Y13.947 E21.05673
G1 F600 E19.30673
G1 Z0.525
G0 F10500 X21.797 Y18.196
;TYPE:WALL-INNER
G1 Z0.425
G1 F600 E21.05673
G1 F900 X139.922 Y18.195 E25.97521
G1 X139.922 Y135.929 E30.87741
G1 X21.797 Y135.929 E35.79590
G1 X21.797 Y18.196 E40.69806
G0 F10500 X21.172 Y17.571
;TYPE:WALL-OUTER
G1 F900 X140.547 Y17.570 E45.66859
G1 X140.547 Y136.554 E50.62284
G1 X21.172 Y136.554 E55.59337
G1 X21.172 Y17.571 E60.54758
G0 F10500 X22.391 Y18.415
;TYPE:SKIN
G1 F900 X139.686 Y135.709 E67.45446
G0 F10500 X139.702 Y134.841
G1 F900 X23.275 Y18.415 E74.31023
G0 F10500 X24.159 Y18.415
G1 F900 X139.702 Y133.957 E81.11394
G0 F10500 X139.702 Y133.073
G1 F900 X25.043 Y18.415 E87.86560
G0 F10500 X25.927 Y18.415
G1 F900 X139.702 Y132.190 E94.56524
G0 F10500 X139.702 Y131.306
G1 F900 X26.811 Y18.415 E101.21282
G0 F10500 X27.695 Y18.415
G1 F900 X139.702 Y130.422 E107.80835
G0 F10500 X139.702 Y129.538
G1 F900 X28.579 Y18.415 E114.35182
G0 F10500 X29.463 Y18.415
G1 F900 X139.702 Y128.654 E120.84324
G0 F10500 X139.702 Y127.770
G1 F900 X30.346 Y18.415 E127.28263
G0 F10500 X31.230 Y18.415
G1 F900 X139.702 Y126.886 E133.66997
G0 F10500 X139.702 Y126.002
G1 F900 X32.114 Y18.415 E140.00526
G0 F10500 X32.998 Y18.415
G1 F900 X139.702 Y125.119 E146.28852
G0 F10500 X139.702 Y124.235
G1 F900 X33.882 Y18.415 E152.51972
G0 F10500 X34.766 Y18.415
G1 F900 X139.702 Y123.351 E158.69887
G0 F10500 X139.702 Y122.467
G1 F900 X35.650 Y18.415 E164.82597
G0 F10500 X36.534 Y18.415
G1 F900 X139.702 Y121.583 E170.90101
G0 F10500 X139.702 Y120.699
G1 F900 X37.417 Y18.415 E176.92403
G0 F10500 X38.301 Y18.415
G1 F900 X139.702 Y119.815 E182.89500
G0 F10500 X139.702 Y118.931
G1 F900 X39.185 Y18.415 E188.81390
G0 F10500 X22.015 Y18.922
G1 F900 X138.802 Y135.709 E195.69090
G0 F10500 X137.918 Y135.709
G1 F900 X22.015 Y19.806 E202.51584
G0 F10500 X22.015 Y20.690
G1 F900 X137.034 Y135.709 E209.28873
G0 F10500 X136.150 Y135.709
G1 F900 X22.015 Y21.574 E216.00957
G0 F10500 X22.015 Y22.458
G1 F900 X135.266 Y135.709 E222.67835
G0 F10500 X134.382 Y135.709
G1 F900 X22.015 Y23.342 E229.29507
G0 F10500 X22.015 Y24.226
G1 F900 X133.498 Y135.709 E235.85974
G0 F10500 X132.615 Y135.709
G1 F900 X22.015 Y25.110 E242.37239
G0 F10500 X22.015 Y25.993
G1 F900 X131.731 Y135.709 E248.83301
G0 F10500 X130.847 Y135.709
G1 F900 X22.015 Y26.877 E255.24158
G0 F10500 X22.015 Y27.761
G1 F900 X129.963 Y135.709 E261.59809
G0 F10500 X129.079 Y135.709
G1 F900 X22.015 Y28.645 E267.90255
G0 F10500 X22.015 Y29.529
G1 F900 X128.195 Y135.709 E274.15496
G0 F10500 X127.311 Y135.709
G1 F900 X22.015 Y30.413 E280.35531
G0 F10500 X22.015 Y31.297
G1 F900 X126.427 Y135.709 E286.50360
G0 F10500 X125.543 Y135.709
G1 F900 X22.015 Y32.181 E292.59984
G0 F10500 X22.015 Y33.065
G1 F900 X124.660 Y135.709 E298.64406
G0 F10500 X123.776 Y135.709
G1 F900 X22.015 Y33.948 E304.63625
G0 F10500 X22.015 Y34.832
G1 F900 X122.892 Y135.709 E310.57639
G0 F10500 X122.008 Y135.709
G1 F900 X22.015 Y35.716 E316.46447
G0 F10500 X22.015 Y36.600
G1 F900 X121.124 Y135.709 E322.30050
G0 F10500 X120.240 Y135.709
G1 F900 X22.015 Y37.484 E328.08448
G0 F10500 X22.015 Y38.368
G1 F900 X119.356 Y135.709 E333.81640
G0 F10500 X118.472 Y135.709
G1 F900 X22.015 Y39.252 E339.49626
G0 F10500 X22.015 Y40.136
G1 F900 X117.589 Y135.709 E345.12410
G0 F10500 X116.705 Y135.709
G1 F900 X22.015 Y41.019 E350.69992
G0 F10500 X22.015 Y41.903
G1 F900 X115.821 Y135.709 E356.22368
G0 F10500 X114.937 Y135.709
G1 F900 X22.015 Y42.787 E361.69539
G0 F10500 X22.015 Y43.671
G1 F900 X114.053 Y135.709 E367.11504
G0 F10500 X113.169 Y135.709
G1 F900 X22.015 Y44.555 E372.48264
G0 F10500 X22.015 Y45.439
G1 F900 X112.285 Y135.709 E377.79819
G0 F10500 X111.401 Y135.709
G1 F900 X22.015 Y46.323 E383.06168
G0 F10500 X22.015 Y47.207
G1 F900 X110.517 Y135.709 E388.27312
G0 F10500 X109.634 Y135.709
G1 F900 X22.015 Y48.091 E393.43253
G0 F10500 X22.015 Y48.974
G1 F900 X108.750 Y135.709 E398.53991
G0 F10500 X107.866 Y135.709
G1 F900 X22.015 Y49.858 E403.59525
G0 F10500 X22.015 Y50.742
G1 F900 X106.982 Y135.709 E408.59852
G0 F10500 X106.098 Y135.709
G1 F900 X22.015 Y51.626 E413.54975
G0 F10500 X22.015 Y52.510
G1 F900 X105.214 Y135.709 E418.44892
G0 F10500 X104.330 Y135.709
G1 F900 X22.015 Y53.394 E423.29603
G0 F10500 X22.015 Y54.278
G1 F900 X103.446 Y135.709 E428.09109
G0 F10500 X102.563 Y135.709
G1 F900 X22.015 Y55.162 E432.83413
G0 F10500 X22.015 Y56.045
G1 F900 X101.679 Y135.709 E437.52514
G0 F10500 X100.795 Y135.709
G1 F900 X22.015 Y56.929 E442.16410
G0 F10500 X22.015 Y57.813
G1 F900 X99.911 Y135.709 E446.75100
G0 F10500 X99.027 Y135.709
G1 F900 X22.015 Y58.697 E451.28585
G0 F10500 X22.015 Y59.581
G1 F900 X98.143 Y135.709 E455.76864
G0 F10500 X97.259 Y135.709
G1 F900 X22.015 Y60.465 E460.19938
G0 F10500 X22.015 Y61.349
G1 F900 X96.375 Y135.709 E464.57806
G0 F10500 X95.491 Y135.709
G1 F900 X22.015 Y62.233 E468.90470
G0 F10500 X22.015 Y63.117
G1 F900 X94.608 Y135.709 E473.17930
G0 F10500 X93.724 Y135.709
G1 F900 X22.015 Y64.000 E477.40188
G0 F10500 X22.015 Y64.884
G1 F900 X92.840 Y135.709 E481.57241
G0 F10500 X91.956 Y135.709
G1 F900 X22.015 Y65.768 E485.69088
G0 F10500 X22.015 Y66.652
G1 F900 X91.072 Y135.709 E489.75730
G0 F10500 X90.188 Y135.709
G1 F900 X22.015 Y67.536 E493.77166
G0 F10500 X22.015 Y68.420
G1 F900 X89.304 Y135.709 E497.73397
G0 F10500 X88.420 Y135.709
G1 F900 X22.015 Y69.304 E501.64423
G0 F10500 X22.015 Y70.188
G1 F900 X87.536 Y135.709 E505.50243
G0 F10500 X86.653 Y135.709
G1 F900 X22.015 Y71.072 E509.30861
G0 F10500 X22.015 Y71.955
G1 F900 X85.769 Y135.709 E513.06276
G0 F10500 X84.885 Y135.709
G1 F900 X22.015 Y72.839 E516.76486
G0 F10500 X22.015 Y73.723
G1 F900 X84.001 Y135.709 E520.41490
G0 F10500 X83.117 Y135.709
G1 F900 X22.015 Y74.607 E524.01289
G0 F10500 X22.015 Y75.491
G1 F900 X82.233 Y135.709 E527.55882
G0 F10500 X81.349 Y135.709
G1 F900 X22.015 Y76.375 E531.05270
G0 F10500 X22.015 Y77.259
G1 F900 X80.465 Y135.709 E534.49453
G0 F10500 X79.582 Y135.709
G1 F900 X22.015 Y78.143 E537.88433
G0 F10500 X22.015 Y79.026
G1 F900 X78.698 Y135.709 E541.22210
G0 F10500 X77.814 Y135.709
G1 F900 X22.015 Y79.910 E544.50782
G0 F10500 X22.015 Y80.794
G1 F900 X76.930 Y135.709 E547.74149
G0 F10500 X76.046 Y135.709
G1 F900 X22.015 Y81.678 E550.92311
G0 F10500 X22.015 Y82.562
G1 F900 X75.162 Y135.709 E554.05266
G0 F10500 X74.278 Y135.709
G1 F900 X22.015 Y83.446 E557.13017
G0 F10500 X22.015 Y84.330
G1 F900 X73.394 Y135.709 E560.15562
G0 F10500 X72.510 Y135.709
G1 F900 X22.015 Y85.214 E563.12901
G0 F10500 X22.015 Y86.098
G1 F900 X71.627 Y135.709 E566.05038
G0 F10500 X70.743 Y135.709
G1 F900 X22.015 Y86.981 E568.91973
G0 F10500 X22.015 Y87.865
G1 F900 X69.859 Y135.709 E571.73702
G0 F10500 X68.975 Y135.709
G1 F900 X22.015 Y88.749 E574.50226
G0 F10500 X22.015 Y89.633
G1 F900 X68.091 Y135.709 E577.21544
G0 F10500 X67.207 Y135.709
G1 F900 X22.015 Y90.517 E579.87657
G0 F10500 X22.015 Y91.401
G1 F900 X66.323 Y135.709 E582.48565
G0 F10500 X65.439 Y135.709
G1 F900 X22.015 Y92.285 E585.04267
G0 F10500 X22.015 Y93.169
G1 F900 X64.556 Y135.709 E587.54766
G0 F10500 X63.672 Y135.709
G1 F900 X22.015 Y94.052 E590.00063
G0 F10500 X22.015 Y94.936
G1 F900 X62.788 Y135.709 E592.40155
G0 F10500 X61.904 Y135.709
G1 F900 X22.015 Y95.820 E594.75041
G0 F10500 X22.015 Y96.704
G1 F900 X61.020 Y135.709 E597.04722
G0 F10500 X60.136 Y135.709
G1 F900 X22.015 Y97.588 E599.29197
G0 F10500 X22.015 Y98.472
G1 F900 X59.252 Y135.709 E601.48467
G0 F10500 X58.368 Y135.709
G1 F900 X22.015 Y99.356 E603.62532
G0 F10500 X22.015 Y100.240
G1 F900 X57.484 Y135.709 E605.71391
G0 F10500 X56.601 Y135.709
G1 F900 X22.015 Y101.124 E607.75047
G0 F10500 X22.015 Y102.007
G1 F900 X55.717 Y135.709 E609.73501
G0 F10500 X54.833 Y135.709
G1 F900 X22.015 Y102.891 E611.66750
G0 F10500 X22.015 Y103.775
G1 F900 X53.949 Y135.709 E613.54793
G0 F10500 X53.065 Y135.709
G1 F900 X22.015 Y104.659 E615.37631
G0 F10500 X22.015 Y105.543
G1 F900 X52.181 Y135.709 E617.15263
G0 F10500 X51.297 Y135.709
G1 F900 X22.015 Y106.427 E618.87690
G0 F10500 X22.015 Y107.311
G1 F900 X50.413 Y135.709 E620.54912
G0 F10500 X49.530 Y135.709
G1 F900 X22.015 Y108.195 E622.16931
G0 F10500 X22.015 Y109.078
G1 F900 X48.646 Y135.709 E623.73747
G0 F10500 X47.762 Y135.709
G1 F900 X22.015 Y109.962 E625.25358
G0 F10500 X22.015 Y110.846
G1 F900 X46.878 Y135.709 E626.71764
G0 F10500 X45.994 Y135.709
G1 F900 X22.015 Y111.730 E628.12964
G0 F10500 X22.015 Y112.614
G1 F900 X45.110 Y135.709 E629.48959
G0 F10500 X44.226 Y135.709
G1 F900 X22.015 Y113.498 E630.79748
G0 F10500 X22.015 Y114.382
G1 F900 X43.342 Y135.709 E632.05332
G0 F10500 X42.458 Y135.709
G1 F900 X22.015 Y115.266 E633.25711
G0 F10500 X22.015 Y116.150
G1 F900 X41.575 Y135.709 E634.40887
G0 F10500 X40.691 Y135.709
G1 F900 X22.015 Y117.033 E635.50860
G0 F10500 X22.015 Y117.917
G1 F900 X39.807 Y135.709 E636.55629
G0 F10500 X38.923 Y135.709
G1 F900 X22.015 Y118.801 E637.55191
G0 F10500 X22.015 Y119.685
G1 F900 X38.039 Y135.709 E638.49548
G0 F10500 X37.155 Y135.709
G1 F900 X22.015 Y120.569 E639.38700
G0 F10500 X22.015 Y121.453
G1 F900 X36.271 Y135.709 E640.22647
G0 F10500 X35.387 Y135.709
G1 F900 X22.015 Y122.337 E641.01388
G0 F10500 X22.015 Y123.221
G1 F900 X34.503 Y135.709 E641.74923
G0 F10500 X33.620 Y135.709
G1 F900 X22.015 Y124.105 E642.43256
G0 F10500 X22.015 Y124.988
G1 F900 X32.736 Y135.709 E643.06387
G0 F10500 X31.852 Y135.709
G1 F900 X22.015 Y125.872 E643.64312
G0 F10500 X22.015 Y126.756
G1 F900 X30.968 Y135.709 E644.17032
G0 F10500 X30.084 Y135.709
G1 F900 X22.015 Y127.640 E644.64546
G0 F10500 X22.015 Y128.524
G1 F900 X29.200 Y135.709 E645.06855
G0 F10500 X28.316 Y135.709
G1 F900 X22.015 Y129.408 E645.43958
G0 F10500 X22.015 Y130.292
G1 F900 X27.432 Y135.709 E645.75856
G0 F10500 X26.549 Y135.709
G1 F900 X22.015 Y131.176 E646.02552
G0 F10500 X22.015 Y132.059
G1 F900 X25.665 Y135.709 E646.24045
G0 F10500 X24.781 Y135.709
G1 F900 X22.015 Y132.943 E646.40332
G0 F10500 X22.015 Y133.827
G1 F900 X23.897 Y135.709 E646.51414
G0 F10500 X23.013 Y135.709
G1 F900 X22.015 Y134.711 E646.57291
G0 F10500 X22.015 Y135.595
G1 F900 X22.129 Y135.709 E646.57962
G0 F10500 X40.069 Y18.415
G1 F900 X139.702 Y118.047 E652.44648
G0 F10500 X139.702 Y117.164
G1 F900 X40.953 Y18.415 E658.26131
G0 F10500 X41.837 Y18.415
G1 F900 X139.702 Y116.280 E664.02408
G0 F10500 X139.702 Y115.396
G1 F900 X42.721 Y18.415 E669.73481
G0 F10500 X43.605 Y18.415
G1 F900 X139.702 Y114.512 E675.39347
G0 F10500 X139.702 Y113.628
G1 F900 X44.489 Y18.415 E681.00009
G0 F10500 X45.372 Y18.415
G1 F900 X139.702 Y112.744 E686.55468
G0 F10500 X139.702 Y111.860
G1 F900 X46.256 Y18.415 E692.05721
G0 F10500 X47.140 Y18.415
G1 F900 X139.702 Y110.976 E697.50769
G0 F10500 X139.702 Y110.092
G1 F900 X48.024 Y18.415 E702.90611
G0 F10500 X48.908 Y18.415
G1 F900 X139.702 Y109.209 E708.25252
G0 F10500 X139.702 Y108.325
G1 F900 X49.792 Y18.415 E713.54686
G0 F10500 X50.676 Y18.415
G1 F900 X139.702 Y107.441 E718.78915
G0 F10500 X139.702 Y106.557
G1 F900 X51.560 Y18.415 E723.97939
G0 F10500 X52.443 Y18.415
G1 F900 X139.702 Y105.673 E729.11760
G0 F10500 X139.702 Y104.789
G1 F900 X53.327 Y18.415 E734.20376
G0 F10500 X54.211 Y18.415
G1 F900 X139.702 Y103.905 E739.23787
G0 F10500 X139.702 Y103.021
G1 F900 X55.095 Y18.415 E744.21992
G0 F10500 X55.979 Y18.415
G1 F900 X139.702 Y102.138 E749.14994
G0 F10500 X139.702 Y101.254
G1 F900 X56.863 Y18.415 E754.02791
G0 F10500 X57.747 Y18.415
G1 F900 X139.702 Y100.370 E758.85383
G0 F10500 X139.702 Y99.486
G1 F900 X58.631 Y18.415 E763.62769
G0 F10500 X59.515 Y18.415
G1 F900 X139.702 Y98.602 E768.34950
G0 F10500 X139.702 Y97.718
G1 F900 X60.398 Y18.415 E773.01928
G0 F10500 X61.282 Y18.415
G1 F900 X139.702 Y96.834 E777.63701
G0 F10500 X139.702 Y95.950
G1 F900 X62.166 Y18.415 E782.20269
G0 F10500 X63.050 Y18.415
G1 F900 X139.702 Y95.066 E786.71631
G0 F10500 X139.702 Y94.183
G1 F900 X63.934 Y18.415 E791.17790
G0 F10500 X64.818 Y18.415
G1 F900 X139.702 Y93.299 E795.58744
G0 F10500 X139.702 Y92.415
G1 F900 X65.702 Y18.415 E799.94493
G0 F10500 X66.586 Y18.415
G1 F900 X139.702 Y91.531 E804.25036
G0 F10500 X139.702 Y90.647
G1 F900 X67.470 Y18.415 E808.50374
G0 F10500 X68.353 Y18.415
G1 F900 X139.702 Y89.763 E812.70509
G0 F10500 X139.702 Y88.879
G1 F900 X69.237 Y18.415 E816.85439
G0 F10500 X70.121 Y18.415
G1 F900 X139.702 Y87.995 E820.95163
G0 F10500 X139.702 Y87.112
G1 F900 X71.005 Y18.415 E824.99685
G0 F10500 X71.889 Y18.415
G1 F900 X139.702 Y86.228 E828.99002
G0 F10500 X139.702 Y85.344
G1 F900 X72.773 Y18.415 E832.93113
G0 F10500 X73.657 Y18.415
G1 F900 X139.702 Y84.460 E836.82019
G0 F10500 X139.702 Y83.576
G1 F900 X74.541 Y18.415 E840.65719
G0 F10500 X75.424 Y18.415
G1 F900 X139.702 Y82.692 E844.44217
G0 F10500 X139.702 Y81.808
G1 F900 X76.308 Y18.415 E848.17509
G0 F10500 X77.192 Y18.415
G1 F900 X139.702 Y80.924 E851.85596
G0 F10500 X139.702 Y80.040
G1 F900 X78.076 Y18.415 E855.48478
G0 F10500 X78.960 Y18.415
G1 F900 X139.702 Y79.157 E859.06157
G0 F10500 X139.702 Y78.273
G1 F900 X79.844 Y18.415 E862.58630
G0 F10500 X80.728 Y18.415
G1 F900 X139.702 Y77.389 E866.05898
G0 F10500 X139.702 Y76.505
G1 F900 X81.611 Y18.414 E869.47967
G0 F10500 X82.495 Y18.414
G1 F900 X139.702 Y75.621 E872.84830
G0 F10500 X139.702 Y74.737
G1 F900 X83.379 Y18.414 E876.16488
G0 F10500 X84.263 Y18.414
G1 F900 X139.702 Y73.853 E879.42940
G0 F10500 X139.702 Y72.969
G1 F900 X85.146 Y18.414 E882.64190
G0 F10500 X86.030 Y18.414
G1 F900 X139.702 Y72.086 E885.80237
G0 F10500 X139.702 Y71.202
G1 F900 X86.914 Y18.414 E888.91079
G0 F10500 X87.798 Y18.414
G1 F900 X139.702 Y70.318 E891.96716
G0 F10500 X139.702 Y69.434
G1 F900 X88.682 Y18.414 E894.97147
G0 F10500 X89.566 Y18.414
G1 F900 X139.702 Y68.550 E897.92372
G0 F10500 X139.702 Y67.666
G1 F900 X90.450 Y18.414 E900.82392
G0 F10500 X91.334 Y18.414
G1 F900 X139.702 Y66.782 E903.67207
G0 F10500 X139.702 Y65.898
G1 F900 X92.218 Y18.414 E906.46816
G0 F10500 X93.101 Y18.414
G1 F900 X139.702 Y65.014 E909.21223
G0 F10500 X139.702 Y64.131
G1 F900 X93.985 Y18.414 E911.90428
G0 F10500 X94.869 Y18.414
G1 F900 X139.702 Y63.247 E914.54426
G0 F10500 X139.702 Y62.363
G1 F900 X95.753 Y18.414 E917.13220
G0 F10500 X96.637 Y18.414
G1 F900 X139.702 Y61.479 E919.66808
G0 F10500 X139.702 Y60.595
G1 F900 X97.521 Y18.414 E922.15191
G0 F10500 X98.405 Y18.414
G1 F900 X139.702 Y59.711 E924.58368
G0 F10500 X139.702 Y58.827
G1 F900 X99.289 Y18.414 E926.96340
G0 F10500 X100.172 Y18.414
G1 F900 X139.702 Y57.943 E929.29109
G0 F10500 X139.702 Y57.059
G1 F900 X101.056 Y18.414 E931.56673
G0 F10500 X101.940 Y18.414
G1 F900 X139.702 Y56.176 E933.79034
G0 F10500 X139.702 Y55.292
G1 F900 X102.824 Y18.414 E935.96190
G0 F10500 X103.708 Y18.414
G1 F900 X139.702 Y54.408 E938.08141
G0 F10500 X139.702 Y53.524
G1 F900 X104.592 Y18.414 E940.14886
G0 F10500 X105.476 Y18.414
G1 F900 X139.702 Y52.640 E942.16425
G0 F10500 X139.702 Y51.756
G1 F900 X106.360 Y18.414 E944.12759
G0 F10500 X107.244 Y18.414
G1 F900 X139.702 Y50.872 E946.03888
G0 F10500 X139.702 Y49.988
G1 F900 X108.127 Y18.414 E947.89815
G0 F10500 X109.011 Y18.414
G1 F900 X139.702 Y49.105 E949.70538
G0 F10500 X139.702 Y48.221
G1 F900 X109.895 Y18.414 E951.46057
G0 F10500 X110.779 Y18.414
G1 F900 X139.702 Y47.337 E953.16370
G0 F10500 X139.702 Y46.453
G1 F900 X111.663 Y18.414 E954.81477
G0 F10500 X112.547 Y18.414
G1 F900 X139.702 Y45.569 E956.41379
G0 F10500 X139.702 Y44.685
G1 F900 X113.431 Y18.414 E957.96076
G0 F10500 X114.315 Y18.414
G1 F900 X139.702 Y43.801 E959.45567
G0 F10500 X139.702 Y42.917
G1 F900 X115.199 Y18.414 E960.89853
G0 F10500 X116.082 Y18.414
G1 F900 X139.702 Y42.033 E962.28936
G0 F10500 X139.702 Y41.150
G1 F900 X116.966 Y18.414 E963.62817
G0 F10500 X117.850 Y18.414
G1 F900 X139.702 Y40.266 E964.91493
G0 F10500 X139.702 Y39.382
G1 F900 X118.734 Y18.414 E966.14963
G0 F10500 X119.618 Y18.414
G1 F900 X139.702 Y38.498 E967.33227
G0 F10500 X139.702 Y37.614
G1 F900 X120.502 Y18.414 E968.46286
G0 F10500 X121.386 Y18.414
G1 F900 X139.702 Y36.730 E969.54140
G0 F10500 X139.702 Y35.846
G1 F900 X122.270 Y18.414 E970.56788
G0 F10500 X123.153 Y18.414
G1 F900 X139.702 Y34.962 E971.54234
G0 F10500 X139.702 Y34.079
G1 F900 X124.037 Y18.414 E972.46477
G0 F10500 X124.921 Y18.414
G1 F900 X139.702 Y33.195 E973.33515
G0 F10500 X139.702 Y32.311
G1 F900 X125.805 Y18.414 E974.15347
G0 F10500 X126.689 Y18.414
G1 F900 X139.702 Y31.427 E974.91974
G0 F10500 X139.702 Y30.543
G1 F900 X127.573 Y18.414 E975.63396
G0 F10500 X128.457 Y18.414
G1 F900 X139.702 Y29.659 E976.29612
G0 F10500 X139.702 Y28.775
G1 F900 X129.341 Y18.414 E976.90623
G0 F10500 X130.225 Y18.414
G1 F900 X139.702 Y27.891 E977.46428
G0 F10500 X139.702 Y27.007
G1 F900 X131.108 Y18.414 E977.97031
G0 F10500 X131.992 Y18.414
G1 F900 X139.702 Y26.124 E978.42431
G0 F10500 X139.702 Y25.240
G1 F900 X132.876 Y18.414 E978.82626
G0 F10500 X133.760 Y18.414
G1 F900 X139.702 Y24.356 E979.17616
G0 F10500 X139.702 Y23.472
G1 F900 X134.644 Y18.414 E979.47400
G0 F10500 X135.528 Y18.414
G1 F900 X139.702 Y22.588 E979.71978
G0 F10500 X139.702 Y21.704
G1 F900 X136.412 Y18.414 E979.91351
G0 F10500 X137.296 Y18.414
G1 F900 X139.702 Y20.820 E980.05519
G0 F10500 X139.702 Y19.936
G1 F900 X138.179 Y18.414 E980.14484
G0 F10500 X139.063 Y18.414
G1 F900 X139.702 Y19.052 E980.18244
;LAYER:1
M106 S191
G0 F10500 X140.109 Y18.642 Z0.805
;TYPE:WALL-INNER
G1 F1140 X140.109 Y136.116 E983.68121
G1 X21.610 Y136.116 E987.21051
G1 X21.610 Y18.642 E990.70929
G1 X140.109 Y18.642 E994.23859
G0 F10500 X140.609 Y18.142
;TYPE:WALL-OUTER
G1 F1080 X140.609 Y136.616 E997.76714
G1 X21.110 Y136.616 E1001.32623
G1 X21.110 Y18.142 E1004.85478
G1 X140.609 Y18.142 E1008.41387
G0 F10500 X139.928 Y18.816
;TYPE:SKIN
G1 F1380 X22.804 Y135.941 E1013.34716
G0 F10500 X23.511 Y135.941
G1 F1380 X139.932 Y19.519 E1018.25084
G0 F10500 X139.221 Y18.816
G1 F1380 X22.097 Y135.941 E1023.18413
G0 F10500 X21.785 Y135.546
G1 F1380 X138.514 Y18.816 E1028.10079
G0 F10500 X137.807 Y18.816
G1 F1380 X21.785 Y134.838 E1032.98764
G0 F10500 X21.785 Y134.131
G1 F1380 X137.100 Y18.816 E1037.84471
G0 F10500 X136.393 Y18.816
G1 F1380 X21.785 Y133.424 E1042.67201
G0 F10500 X21.785 Y132.717
G1 F1380 X135.686 Y18.816 E1047.46953
G0 F10500 X134.978 Y18.816
G1 F1380 X21.785 Y132.010 E1052.23724
G0 F10500 X21.785 Y131.303
G1 F1380 X134.271 Y18.816 E1056.97518
G0 F10500 X133.564 Y18.816
G1 F1380 X21.785 Y130.596 E1061.68334
G0 F10500 X21.785 Y129.889
G1 F1380 X132.857 Y18.816 E1066.36172
G0 F10500 X132.150 Y18.816
G1 F1380 X21.785 Y129.182 E1071.01032
G0 F10500 X21.785 Y128.474
G1 F1380 X131.443 Y18.816 E1075.62913
G0 F10500 X130.736 Y18.816
G1 F1380 X21.785 Y127.767 E1080.21815
G0 F10500 X21.785 Y127.060
G1 F1380 X130.029 Y18.816 E1084.77739
G0 F10500 X129.322 Y18.816
G1 F1380 X21.785 Y126.353 E1089.30686
G0 F10500 X21.785 Y125.646
G1 F1380 X128.614 Y18.816 E1093.80652
G0 F10500 X127.907 Y18.816
G1 F1380 X21.785 Y124.939 E1098.27641
G0 F10500 X21.785 Y124.232
G1 F1380 X127.200 Y18.816 E1102.71652
G0 F10500 X126.493 Y18.816
G1 F1380 X21.785 Y123.525 E1107.12685
G0 F10500 X21.785 Y122.818
G1 F1380 X125.786 Y18.816 E1111.50740
G0 F10500 X125.079 Y18.816
G1 F1380 X21.785 Y122.110 E1115.85814
G0 F10500 X21.785 Y121.403
G1 F1380 X124.372 Y18.816 E1120.17912
G0 F10500 X123.665 Y18.816
G1 F1380 X21.785 Y120.696 E1124.47031
G0 F10500 X24.218 Y135.941
G1 F1380 X139.932 Y20.226 E1129.34421
G0 F10500 X139.932 Y20.933
G1 F1380 X24.925 Y135.941 E1134.18833
G0 F10500 X25.632 Y135.941
G1 F1380 X139.932 Y21.641 E1139.00266
G0 F10500 X139.932 Y22.348
G1 F1380 X26.339 Y135.941 E1143.78720
G0 F10500 X27.046 Y135.941
G1 F1380 X139.932 Y23.055 E1148.54196
G0 F10500 X139.932 Y23.762
G1 F1380 X27.753 Y135.941 E1153.26695
G0 F10500 X28.461 Y135.941
G1 F1380 X139.932 Y24.469 E1157.96214
G0 F10500 X139.932 Y25.176
G1 F1380 X29.168 Y135.941 E1162.62755
G0 F10500 X29.875 Y135.941
G1 F1380 X139.932 Y25.883 E1167.26317
G0 F10500 X139.932 Y26.590
G1 F1380 X30.582 Y135.941 E1171.86902
G0 F10500 X31.289 Y135.941
G1 F1380 X139.932 Y27.297 E1176.44509
G0 F10500 X139.932 Y28.004
G1 F1380 X31.996 Y135.941 E1180.99139
G0 F10500 X32.703 Y135.941
G1 F1380 X139.932 Y28.712 E1185.50788
G0 F10500 X139.932 Y29.419
G1 F1380 X33.410 Y135.941 E1189.99459
G0 F10500 X34.117 Y135.941
G1 F1380 X139.932 Y30.126 E1194.45153
G0 F10500 X139.932 Y30.833
G1 F1380 X34.825 Y135.941 E1198.87866
G0 F10500 X35.532 Y135.941
G1 F1380 X139.932 Y31.540 E1203.27602
G0 F10500 X139.932 Y32.247
G1 F1380 X36.239 Y135.941 E1207.64359
G0 F10500 X36.946 Y135.941
G1 F1380 X139.932 Y32.954 E1211.98139
G0 F10500 X139.932 Y33.661
G1 F1380 X37.653 Y135.941 E1216.28941
G0 F10500 X38.360 Y135.941
G1 F1380 X139.932 Y34.368 E1220.56765
G0 F10500 X139.932 Y35.076
G1 F1380 X39.067 Y135.941 E1224.81609
G0 F10500 X39.774 Y135.941
G1 F1380 X139.932 Y35.783 E1229.03475
G0 F10500 X139.932 Y36.490
G1 F1380 X40.481 Y135.941 E1233.22363
G0 F10500 X41.188 Y135.941
G1 F1380 X139.932 Y37.197 E1237.38274
G0 F10500 X139.932 Y37.904
G1 F1380 X41.896 Y135.941 E1241.51204
G0 F10500 X42.603 Y135.941
G1 F1380 X139.932 Y38.611 E1245.61156
G0 F10500 X139.932 Y39.318
G1 F1380 X43.310 Y135.941 E1249.68131
G0 F10500 X44.017 Y135.941
G1 F1380 X139.932 Y40.025 E1253.72128
G0 F10500 X139.932 Y40.732
G1 F1380 X44.724 Y135.941 E1257.73146
G0 F10500 X45.431 Y135.941
G1 F1380 X139.932 Y41.439 E1261.71187
G0 F10500 X139.932 Y42.147
G1 F1380 X46.138 Y135.941 E1265.66248
G0 F10500 X46.845 Y135.941
G1 F1380 X139.932 Y42.854 E1269.58331
G0 F10500 X139.932 Y43.561
G1 F1380 X47.552 Y135.941 E1273.47436
G0 F10500 X48.260 Y135.941
G1 F1380 X139.932 Y44.268 E1277.33561
G0 F10500 X139.932 Y44.975
G1 F1380 X48.967 Y135.941 E1281.16709
G0 F10500 X49.674 Y135.941
G1 F1380 X139.932 Y45.682 E1284.96878
G0 F10500 X139.932 Y46.389
G1 F1380 X50.381 Y135.941 E1288.74070
G0 F10500 X51.088 Y135.941
G1 F1380 X139.932 Y47.096 E1292.48283
G0 F10500 X139.932 Y47.803
G1 F1380 X51.795 Y135.941 E1296.19519
G0 F10500 X52.502 Y135.941
G1 F1380 X139.932 Y48.511 E1299.87775
G0 F10500 X139.932 Y49.218
G1 F1380 X53.209 Y135.941 E1303.53052
G0 F10500 X53.916 Y135.941
G1 F1380 X139.932 Y49.925 E1307.15352
G0 F10500 X139.932 Y50.632
G1 F1380 X54.623 Y135.941 E1310.74674
G0 F10500 X55.331 Y135.941
G1 F1380 X139.932 Y51.339 E1314.31016
G0 F10500 X139.932 Y52.046
G1 F1380 X56.038 Y135.941 E1317.84380
G0 F10500 X56.745 Y135.941
G1 F1380 X139.932 Y52.753 E1321.34767
G0 F10500 X139.932 Y53.460
G1 F1380 X57.452 Y135.941 E1324.82175
G0 F10500 X58.159 Y135.941
G1 F1380 X139.932 Y54.167 E1328.26606
G0 F10500 X139.932 Y54.875
G1 F1380 X58.866 Y135.941 E1331.68056
G0 F10500 X59.573 Y135.941
G1 F1380 X139.932 Y55.582 E1335.06529
G0 F10500 X139.932 Y56.289
G1 F1380 X60.280 Y135.941 E1338.42023
G0 F10500 X60.987 Y135.941
G1 F1380 X139.932 Y56.996 E1341.74540
G0 F10500 X139.932 Y57.703
G1 F1380 X61.695 Y135.941 E1345.04077
G0 F10500 X62.402 Y135.941
G1 F1380 X139.932 Y58.410 E1348.30636
G0 F10500 X139.932 Y59.117
G1 F1380 X63.109 Y135.941 E1351.54217
G0 F10500 X63.816 Y135.941
G1 F1380 X139.932 Y59.824 E1354.74820
G0 F10500 X139.932 Y60.531
G1 F1380 X64.523 Y135.941 E1357.92446
G0 F10500 X65.230 Y135.941
G1 F1380 X139.932 Y61.238 E1361.07093
G0 F10500 X139.932 Y61.946
G1 F1380 X65.937 Y135.941 E1364.18760
G0 F10500 X66.644 Y135.941
G1 F1380 X139.932 Y62.653 E1367.27450
G0 F10500 X139.932 Y63.360
G1 F1380 X67.351 Y135.941 E1370.33161
G0 F10500 X68.059 Y135.941
G1 F1380 X139.932 Y64.067 E1373.35893
G0 F10500 X139.932 Y64.774
G1 F1380 X68.766 Y135.941 E1376.35647
G0 F10500 X69.473 Y135.941
G1 F1380 X139.932 Y65.481 E1379.32423
G0 F10500 X139.932 Y66.188
G1 F1380 X70.180 Y135.941 E1382.26221
G0 F10500 X70.887 Y135.941
G1 F1380 X139.932 Y66.895 E1385.17041
G0 F10500 X139.932 Y67.602
G1 F1380 X71.594 Y135.941 E1388.04883
G0 F10500 X72.301 Y135.941
G1 F1380 X139.932 Y68.310 E1390.89745
G0 F10500 X139.932 Y69.017
G1 F1380 X73.008 Y135.941 E1393.71629
G0 F10500 X73.715 Y135.941
G1 F1380 X139.932 Y69.724 E1396.50536
G0 F10500 X139.932 Y70.431
G1 F1380 X74.422 Y135.941 E1399.26464
G0 F10500 X75.130 Y135.941
G1 F1380 X139.932 Y71.138 E1401.99413
G0 F10500 X139.932 Y71.845
G1 F1380 X75.837 Y135.941 E1404.69383
G0 F10500 X76.544 Y135.941
G1 F1380 X139.932 Y72.552 E1407.36376
G0 F10500 X139.932 Y73.259
G1 F1380 X77.251 Y135.941 E1410.00391
G0 F10500 X77.958 Y135.941
G1 F1380 X139.932 Y73.966 E1412.61428
G0 F10500 X139.932 Y74.674
G1 F1380 X78.665 Y135.941 E1415.19485
G0 F10500 X79.372 Y135.941
G1 F1380 X139.932 Y75.381 E1417.74564
G0 F10500 X139.932 Y76.088
G1 F1380 X80.079 Y135.941 E1420.26665
G0 F10500 X80.786 Y135.941
G1 F1380 X139.932 Y76.795 E1422.75789
G0 F10500 X139.932 Y77.502
G1 F1380 X81.494 Y135.941 E1425.21932
G0 F10500 X82.201 Y135.941
G1 F1380 X139.932 Y78.209 E1427.65097
G0 F10500 X139.932 Y78.916
G1 F1380 X82.908 Y135.941 E1430.05285
G0 F10500 X83.615 Y135.941
G1 F1380 X139.932 Y79.623 E1432.42495
G0 F10500 X139.932 Y80.330
G1 F1380 X84.322 Y135.941 E1434.76726
G0 F10500 X85.029 Y135.941
G1 F1380 X139.932 Y81.037 E1437.07980
G0 F10500 X139.932 Y81.745
G1 F1380 X85.736 Y135.941 E1439.36254
G0 F10500 X86.443 Y135.941
G1 F1380 X139.932 Y82.452 E1441.61550
G0 F10500 X139.932 Y83.159
G1 F1380 X87.150 Y135.941 E1443.83868
G0 F10500 X87.858 Y135.941
G1 F1380 X139.932 Y83.866 E1446.03206
G0 F10500 X139.932 Y84.573
G1 F1380 X88.565 Y135.941 E1448.19567
G0 F10500 X89.272 Y135.941
G1 F1380 X139.932 Y85.280 E1450.32949
G0 F10500 X139.932 Y85.987
G1 F1380 X89.979 Y135.941 E1452.43353
G0 F10500 X90.686 Y135.941
G1 F1380 X139.932 Y86.694 E1454.50780
G0 F10500 X139.932 Y87.401
G1 F1380 X91.393 Y135.941 E1456.55229
G0 F10500 X92.100 Y135.941
G1 F1380 X139.932 Y88.109 E1458.56697
G0 F10500 X139.932 Y88.816
G1 F1380 X92.807 Y135.941 E1460.55188
G0 F10500 X93.514 Y135.941
G1 F1380 X139.932 Y89.523 E1462.50701
G0 F10500 X139.932 Y90.230
G1 F1380 X94.221 Y135.941 E1464.43236
G0 F10500 X94.929 Y135.941
G1 F1380 X139.932 Y90.937 E1466.32791
G0 F10500 X139.932 Y91.644
G1 F1380 X95.636 Y135.941 E1468.19368
G0 F10500 X96.343 Y135.941
G1 F1380 X139.932 Y92.351 E1470.02967
G0 F10500 X139.932 Y93.058
G1 F1380 X97.050 Y135.941 E1471.83589
G0 F10500 X97.757 Y135.941
G1 F1380 X139.932 Y93.765 E1473.61232
G0 F10500 X139.932 Y94.473
G1 F1380 X98.464 Y135.941 E1475.35896
G0 F10500 X99.171 Y135.941
G1 F1380 X139.932 Y95.180 E1477.07581
G0 F10500 X139.932 Y95.887
G1 F1380 X99.878 Y135.941 E1478.76289
G0 F10500 X100.585 Y135.941
G1 F1380 X139.932 Y96.594 E1480.42019
G0 F10500 X139.932 Y97.301
G1 F1380 X101.293 Y135.941 E1482.04769
G0 F10500 X102.000 Y135.941
G1 F1380 X139.932 Y98.008 E1483.64540
G0 F10500 X139.932 Y98.715
G1 F1380 X102.707 Y135.941 E1485.21335
G0 F10500 X103.414 Y135.941
G1 F1380 X139.932 Y99.422 E1486.75151
G0 F10500 X139.932 Y100.129
G1 F1380 X104.121 Y135.941 E1488.25989
G0 F10500 X104.828 Y135.941
G1 F1380 X139.932 Y100.836 E1489.73849
G0 F10500 X139.932 Y101.544
G1 F1380 X105.535 Y135.941 E1491.18730
G0 F10500 X106.242 Y135.941
G1 F1380 X139.932 Y102.251 E1492.60632
G0 F10500 X139.932 Y102.958
G1 F1380 X106.949 Y135.941 E1493.99557
G0 F10500 X107.657 Y135.941
G1 F1380 X139.932 Y103.665 E1495.35501
G0 F10500 X139.932 Y104.372
G1 F1380 X108.364 Y135.941 E1496.68468
G0 F10500 X109.071 Y135.941
G1 F1380 X139.932 Y105.079 E1497.98457
G0 F10500 X139.932 Y105.786
G1 F1380 X109.778 Y135.941 E1499.25468
G0 F10500 X110.485 Y135.941
G1 F1380 X139.932 Y106.493 E1500.49501
G0 F10500 X139.932 Y107.200
G1 F1380 X111.192 Y135.941 E1501.70556
G0 F10500 X111.899 Y135.941
G1 F1380 X139.932 Y107.908 E1502.88631
G0 F10500 X139.932 Y108.615
G1 F1380 X112.606 Y135.941 E1504.03729
G0 F10500 X113.313 Y135.941
G1 F1380 X139.932 Y109.322 E1505.15848
G0 F10500 X139.932 Y110.029
G1 F1380 X114.020 Y135.941 E1506.24989
G0 F10500 X114.728 Y135.941
G1 F1380 X139.932 Y110.736 E1507.31151
G0 F10500 X139.932 Y111.443
G1 F1380 X115.435 Y135.941 E1508.34335
G0 F10500 X116.142 Y135.941
G1 F1380 X139.932 Y112.150 E1509.34540
G0 F10500 X139.932 Y112.857
G1 F1380 X116.849 Y135.941 E1510.31768
G0 F10500 X117.556 Y135.941
G1 F1380 X139.932 Y113.564 E1511.26018
G0 F10500 X139.932 Y114.271
G1 F1380 X118.263 Y135.941 E1512.17290
G0 F10500 X118.970 Y135.941
G1 F1380 X139.932 Y114.979 E1513.05582
G0 F10500 X139.932 Y115.686
G1 F1380 X119.677 Y135.941 E1513.90896
G0 F10500 X120.384 Y135.941
G1 F1380 X139.932 Y116.393 E1514.73233
G0 F10500 X139.932 Y117.100
G1 F1380 X121.092 Y135.941 E1515.52589
G0 F10500 X121.799 Y135.941
G1 F1380 X139.932 Y117.807 E1516.28967
G0 F10500 X139.932 Y118.514
G1 F1380 X122.506 Y135.941 E1517.02368
G0 F10500 X123.213 Y135.941
G1 F1380 X139.932 Y119.221 E1517.72791
G0 F10500 X139.932 Y119.928
G1 F1380 X123.920 Y135.941 E1518.40235
G0 F10500 X124.627 Y135.941
G1 F1380 X139.932 Y120.635 E1519.04702
G0 F10500 X139.932 Y121.343
G1 F1380 X125.334 Y135.941 E1519.66189
G0 F10500 X126.041 Y135.941
G1 F1380 X139.932 Y122.050 E1520.24698
G0 F10500 X139.932 Y122.757
G1 F1380 X126.748 Y135.941 E1520.80229
G0 F10500 X127.455 Y135.941
G1 F1380 X139.932 Y123.464 E1521.32782
G0 F10500 X139.932 Y124.171
G1 F1380 X128.163 Y135.941 E1521.82356
G0 F10500 X128.870 Y135.941
G1 F1380 X139.932 Y124.878 E1522.28951
G0 F10500 X139.932 Y125.585
G1 F1380 X129.577 Y135.941 E1522.72568
G0 F10500 X130.284 Y135.941
G1 F1380 X139.932 Y126.292 E1523.13208
G0 F10500 X139.932 Y126.999
G1 F1380 X130.991 Y135.941 E1523.50869
G0 F10500 X131.698 Y135.941
G1 F1380 X139.932 Y127.707 E1523.85551
G0 F10500 X139.932 Y128.414
G1 F1380 X132.405 Y135.941 E1524.17255
G0 F10500 X133.112 Y135.941
G1 F1380 X139.932 Y129.121 E1524.45981
G0 F10500 X139.932 Y129.828
G1 F1380 X133.819 Y135.941 E1524.71729
G0 F10500 X134.527 Y135.941
G1 F1380 X139.932 Y130.535 E1524.94497
G0 F10500 X139.932 Y131.242
G1 F1380 X135.234 Y135.941 E1525.14287
G0 F10500 X135.941 Y135.941
G1 F1380 X139.932 Y131.949 E1525.31099
G0 F10500 X139.932 Y132.656
G1 F1380 X136.648 Y135.941 E1525.44933
G0 F10500 X137.355 Y135.941
G1 F1380 X139.932 Y133.363 E1525.55790
G0 F10500 X139.932 Y134.070
G1 F1380 X138.062 Y135.941 E1525.63668
G0 F10500 X138.769 Y135.941
G1 F1380 X139.932 Y134.778 E1525.68567
G0 F10500 X139.932 Y135.485
G1 F1380 X139.476 Y135.941 E1525.70488
G0 F10500 X122.958 Y18.816
G1 F1380 X21.785 Y119.989 E1529.96629
G0 F10500 X21.785 Y119.282
G1 F1380 X122.250 Y18.816 E1534.19790
G0 F10500 X121.543 Y18.816
G1 F1380 X21.785 Y118.575 E1538.39974
G0 F10500 X21.785 Y117.868
G1 F1380 X120.836 Y18.816 E1542.57179
G0 F10500 X120.129 Y18.816
G1 F1380 X21.785 Y117.161 E1546.71407
G0 F10500 X21.785 Y116.454
G1 F1380 X119.422 Y18.816 E1550.82657
G0 F10500 X118.715 Y18.816
G1 F1380 X21.785 Y115.747 E1554.90928
G0 F10500 X21.785 Y115.039
G1 F1380 X118.008 Y18.816 E1558.96220
G0 F10500 X117.301 Y18.816
G1 F1380 X21.785 Y114.332 E1562.98534
G0 F10500 X21.785 Y113.625
G1 F1380 X116.594 Y18.816 E1566.97870
G0 F10500 X115.887 Y18.816
G1 F1380 X21.785 Y112.918 E1570.94229
G0 F10500 X21.785 Y112.211
G1 F1380 X115.179 Y18.816 E1574.87607
G0 F10500 X114.472 Y18.816
G1 F1380 X21.785 Y111.504 E1578.78007
G0 F10500 X21.785 Y110.797
G1 F1380 X113.765 Y18.816 E1582.65430
G0 F10500 X113.058 Y18.816
G1 F1380 X21.785 Y110.090 E1586.49874
G0 F10500 X21.785 Y109.383
G1 F1380 X112.351 Y18.816 E1590.31341
G0 F10500 X111.644 Y18.816
G1 F1380 X21.785 Y108.675 E1594.09827
G0 F10500 X21.785 Y107.968
G1 F1380 X110.937 Y18.816 E1597.85336
G0 F10500 X110.230 Y18.816
G1 F1380 X21.785 Y107.261 E1601.57867
G0 F10500 X21.785 Y106.554
G1 F1380 X109.523 Y18.816 E1605.27420
G0 F10500 X108.815 Y18.816
G1 F1380 X21.785 Y105.847 E1608.93993
G0 F10500 X21.785 Y105.140
G1 F1380 X108.108 Y18.816 E1612.57588
G0 F10500 X107.401 Y18.816
G1 F1380 X21.785 Y104.433 E1616.18205
G0 F10500 X21.785 Y103.726
G1 F1380 X106.694 Y18.816 E1619.75845
G0 F10500 X105.987 Y18.816
G1 F1380 X21.785 Y103.019 E1623.30506
G0 F10500 X21.785 Y102.311
G1 F1380 X105.280 Y18.816 E1626.82188
G0 F10500 X104.573 Y18.816
G1 F1380 X21.785 Y101.604 E1630.30891
G0 F10500 X21.785 Y100.897
G1 F1380 X103.866 Y18.816 E1633.76617
G0 F10500 X103.159 Y18.816
G1 F1380 X21.785 Y100.190 E1637.19365
G0 F10500 X21.785 Y99.483
G1 F1380 X102.451 Y18.816 E1640.59133
G0 F10500 X101.744 Y18.816
G1 F1380 X21.785 Y98.776 E1643.95922
G0 F10500 X21.785 Y98.069
G1 F1380 X101.037 Y18.816 E1647.29734
G0 F10500 X100.330 Y18.816
G1 F1380 X21.785 Y97.362 E1650.60569
G0 F10500 X21.785 Y96.655
G1 F1380 X99.623 Y18.816 E1653.88425
G0 F10500 X98.916 Y18.816
G1 F1380 X21.785 Y95.948 E1657.13303
G0 F10500 X21.785 Y95.240
G1 F1380 X98.209 Y18.816 E1660.35202
G0 F10500 X97.502 Y18.816
G1 F1380 X21.785 Y94.533 E1663.54122
G0 F10500 X21.785 Y93.826
G1 F1380 X96.795 Y18.816 E1666.70065
G0 F10500 X96.088 Y18.816
G1 F1380 X21.785 Y93.119 E1669.83029
G0 F10500 X21.785 Y92.412
G1 F1380 X95.380 Y18.816 E1672.93014
G0 F10500 X94.673 Y18.816
G1 F1380 X21.785 Y91.705 E1676.00021
G0 F10500 X21.785 Y90.998
G1 F1380 X93.966 Y18.816 E1679.04050
G0 F10500 X93.259 Y18.816
G1 F1380 X21.785 Y90.291 E1682.05101
G0 F10500 X21.785 Y89.584
G1 F1380 X92.552 Y18.816 E1685.03174
G0 F10500 X91.845 Y18.816
G1 F1380 X21.785 Y88.876 E1687.98267
G0 F10500 X21.785 Y88.169
G1 F1380 X91.138 Y18.816 E1690.90382
G0 F10500 X90.431 Y18.816
G1 F1380 X21.785 Y87.462 E1693.79520
G0 F10500 X21.785 Y86.755
G1 F1380 X89.724 Y18.816 E1696.65679
G0 F10500 X89.016 Y18.816
G1 F1380 X21.785 Y86.048 E1699.48859
G0 F10500 X21.785 Y85.341
G1 F1380 X88.309 Y18.816 E1702.29060
G0 F10500 X87.602 Y18.816
G1 F1380 X21.785 Y84.634 E1705.06284
G0 F10500 X21.785 Y83.927
G1 F1380 X86.895 Y18.816 E1707.80530
G0 F10500 X86.188 Y18.816
G1 F1380 X21.785 Y83.220 E1710.51798
G0 F10500 X21.785 Y82.512
G1 F1380 X85.481 Y18.816 E1713.20086
G0 F10500 X84.774 Y18.816
G1 F1380 X21.785 Y81.805 E1715.85396
G0 F10500 X21.785 Y81.098
G1 F1380 X84.067 Y18.816 E1718.47728
G0 F10500 X83.360 Y18.816
G1 F1380 X21.785 Y80.391 E1721.07082
G0 F10500 X21.785 Y79.684
G1 F1380 X82.653 Y18.816 E1723.63459
G0 F10500 X81.945 Y18.816
G1 F1380 X21.785 Y78.977 E1726.16855
G0 F10500 X21.785 Y78.270
G1 F1380 X81.238 Y18.816 E1728.67273
G0 F10500 X80.531 Y18.816
G1 F1380 X21.785 Y77.563 E1731.14714
G0 F10500 X21.784 Y76.856
G1 F1380 X79.824 Y18.816 E1733.59179
G0 F10500 X79.117 Y18.816
G1 F1380 X21.784 Y76.149 E1736.00666
G0 F10500 X21.784 Y75.442
G1 F1380 X78.410 Y18.816 E1738.39175
G0 F10500 X77.703 Y18.816
G1 F1380 X21.784 Y74.735 E1740.74706
G0 F10500 X21.784 Y74.028
G1 F1380 X76.996 Y18.816 E1743.07259
G0 F10500 X76.289 Y18.816
G1 F1380 X21.784 Y73.321 E1745.36835
G0 F10500 X21.784 Y72.614
G1 F1380 X75.581 Y18.816 E1747.63430
G0 F10500 X74.874 Y18.816
G1 F1380 X21.784 Y71.907 E1749.87048
G0 F10500 X21.784 Y71.199
G1 F1380 X74.167 Y18.816 E1752.07685
G0 F10500 X73.460 Y18.816
G1 F1380 X21.784 Y70.492 E1754.25345
G0 F10500 X21.784 Y69.785
G1 F1380 X72.753 Y18.816 E1756.40027
G0 F10500 X72.046 Y18.816
G1 F1380 X21.784 Y69.078 E1758.51730
G0 F10500 X21.784 Y68.371
G1 F1380 X71.339 Y18.816 E1760.60456
G0 F10500 X70.632 Y18.816
G1 F1380 X21.784 Y67.664 E1762.66204
G0 F10500 X21.784 Y66.957
G1 F1380 X69.925 Y18.816 E1764.68975
G0 F10500 X69.217 Y18.816
G1 F1380 X21.784 Y66.250 E1766.68765
G0 F10500 X21.784 Y65.543
G1 F1380 X68.510 Y18.816 E1768.65577
G0 F10500 X67.803 Y18.816
G1 F1380 X21.784 Y64.836 E1770.59412
G0 F10500 X21.784 Y64.128
G1 F1380 X67.096 Y18.816 E1772.50266
G0 F10500 X66.389 Y18.816
G1 F1380 X21.784 Y63.421 E1774.38143
G0 F10500 X21.784 Y62.714
G1 F1380 X65.682 Y18.816 E1776.23041
G0 F10500 X64.975 Y18.816
G1 F1380 X21.784 Y62.007 E1778.04962
G0 F10500 X21.784 Y61.300
G1 F1380 X64.268 Y18.816 E1779.83905
G0 F10500 X63.561 Y18.816
G1 F1380 X21.784 Y60.593 E1781.59870
G0 F10500 X21.784 Y59.886
G1 F1380 X62.854 Y18.816 E1783.32857
G0 F10500 X62.146 Y18.816
G1 F1380 X21.784 Y59.179 E1785.02864
G0 F10500 X21.784 Y58.472
G1 F1380 X61.439 Y18.816 E1786.69893
G0 F10500 X60.732 Y18.816
G1 F1380 X21.784 Y57.764 E1788.33942
G0 F10500 X21.784 Y57.057
G1 F1380 X60.025 Y18.816 E1789.95014
G0 F10500 X59.318 Y18.816
G1 F1380 X21.784 Y56.350 E1791.53107
G0 F10500 X21.784 Y55.643
G1 F1380 X58.611 Y18.816 E1793.08223
G0 F10500 X57.904 Y18.816
G1 F1380 X21.784 Y54.936 E1794.60360
G0 F10500 X21.784 Y54.229
G1 F1380 X57.197 Y18.816 E1796.09520
G0 F10500 X56.490 Y18.816
G1 F1380 X21.784 Y53.522 E1797.55702
G0 F10500 X21.784 Y52.815
G1 F1380 X55.782 Y18.816 E1798.98904
G0 F10500 X55.075 Y18.816
G1 F1380 X21.784 Y52.108 E1800.39128
G0 F10500 X21.784 Y51.401
G1 F1380 X54.368 Y18.816 E1801.76374
G0 F10500 X53.661 Y18.816
G1 F1380 X21.784 Y50.693 E1803.10640
G0 F10500 X21.784 Y49.986
G1 F1380 X52.954 Y18.816 E1804.41928
G0 F10500 X52.247 Y18.816
G1 F1380 X21.784 Y49.279 E1805.70239
G0 F10500 X21.784 Y48.572
G1 F1380 X51.540 Y18.816 E1806.95571
G0 F10500 X50.833 Y18.816
G1 F1380 X21.784 Y47.865 E1808.17926
G0 F10500 X21.784 Y47.158
G1 F1380 X50.126 Y18.816 E1809.37302
G0 F10500 X49.418 Y18.816
G1 F1380 X21.784 Y46.451 E1810.53699
G0 F10500 X21.784 Y45.744
G1 F1380 X48.711 Y18.816 E1811.67118
G0 F10500 X48.004 Y18.816
G1 F1380 X21.784 Y45.037 E1812.77559
G0 F10500 X21.784 Y44.329
G1 F1380 X47.297 Y18.816 E1813.85020
G0 F10500 X46.590 Y18.816
G1 F1380 X21.784 Y43.622 E1814.89503
G0 F10500 X21.784 Y42.915
G1 F1380 X45.883 Y18.816 E1815.91008
G0 F10500 X45.176 Y18.816
G1 F1380 X21.784 Y42.208 E1816.89535
G0 F10500 X21.784 Y41.501
G1 F1380 X44.469 Y18.816 E1817.85085
G0 F10500 X43.762 Y18.816
G1 F1380 X21.784 Y40.794 E1818.77656
G0 F10500 X21.784 Y40.087
G1 F1380 X43.055 Y18.816 E1819.67250
G0 F10500 X42.347 Y18.816
G1 F1380 X21.784 Y39.380 E1820.53863
G0 F10500 X21.784 Y38.673
G1 F1380 X41.640 Y18.816 E1821.37499
G0 F10500 X40.933 Y18.816
G1 F1380 X21.784 Y37.965 E1822.18155
G0 F10500 X21.784 Y37.258
G1 F1380 X40.226 Y18.816 E1822.95832
G0 F10500 X39.519 Y18.816
G1 F1380 X21.784 Y36.551 E1823.70532
G0 F10500 X21.784 Y35.844
G1 F1380 X38.812 Y18.816 E1824.42254
G0 F10500 X38.105 Y18.816
G1 F1380 X21.784 Y35.137 E1825.10999
G0 F10500 X21.784 Y34.430
G1 F1380 X37.398 Y18.816 E1825.76765
G0 F10500 X36.691 Y18.816
G1 F1380 X21.784 Y33.723 E1826.39553
G0 F10500 X21.784 Y33.016
G1 F1380 X35.983 Y18.816 E1826.99362
G0 F10500 X35.276 Y18.816
G1 F1380 X21.784 Y32.309 E1827.56192
G0 F10500 X21.784 Y31.602
G1 F1380 X34.569 Y18.816 E1828.10045
G0 F10500 X33.862 Y18.816
G1 F1380 X21.784 Y30.894 E1828.60917
G0 F10500 X21.784 Y30.187
G1 F1380 X33.155 Y18.816 E1829.08812
G0 F10500 X32.448 Y18.816
G1 F1380 X21.784 Y29.480 E1829.53729
G0 F10500 X21.784 Y28.773
G1 F1380 X31.741 Y18.816 E1829.95668
G0 F10500 X31.034 Y18.816
G1 F1380 X21.784 Y28.066 E1830.34629
G0 F10500 X21.784 Y27.359
G1 F1380 X30.327 Y18.816 E1830.70612
G0 F10500 X29.619 Y18.816
G1 F1380 X21.784 Y26.652 E1831.03615
G0 F10500 X21.784 Y25.945
G1 F1380 X28.912 Y18.816 E1831.33640
G0 F10500 X28.205 Y18.816
G1 F1380 X21.784 Y25.238 E1831.60688
G0 F10500 X21.784 Y24.530
G1 F1380 X27.498 Y18.816 E1831.84755
G0 F10500 X26.791 Y18.816
G1 F1380 X21.784 Y23.823 E1832.05845
G0 F10500 X21.784 Y23.116
G1 F1380 X26.084 Y18.816 E1832.23956
G0 F10500 X25.377 Y18.816
G1 F1380 X21.784 Y22.409 E1832.39090
G0 F10500 X21.784 Y21.702
G1 F1380 X24.670 Y18.816 E1832.51246
G0 F10500 X23.963 Y18.816
G1 F1380 X21.784 Y20.995 E1832.60424
G0 F10500 X21.784 Y20.288
G1 F1380 X23.256 Y18.816 E1832.66624
G0 F10500 X22.548 Y18.816
G1 F1380 X21.784 Y19.581 E1832.69844
;LAYER:2
G0 F10500 X21.610 Y19.276 Z1.185
;TYPE:WALL-INNER
G1 F1440 X140.109 Y19.275 E1836.22774
G1 X140.109 Y136.116 E1839.70766
G1 X21.610 Y136.116 E1843.23696
G1 X21.610 Y19.276 E1846.71685
G0 F10500 X21.110 Y18.776
;TYPE:WALL-OUTER
G1 F1320 X140.609 Y18.775 E1850.27594
G1 X140.609 Y136.616 E1853.78564
G1 X21.110 Y136.616 E1857.34472
G1 X21.110 Y18.776 E1860.85440
G0 F10500 X21.925 Y19.451
;TYPE:SKIN
G1 F1920 X138.415 Y135.940 E1865.76094
G0 F10500 X137.708 Y135.940
G1 F1920 X21.784 Y20.016 E1870.64367
G0 F10500 X21.784 Y20.723
G1 F1920 X137.001 Y135.940 E1875.49662
G0 F10500 X136.294 Y135.940
G1 F1920 X21.784 Y21.430 E1880.31978
G0 F10500 X21.784 Y22.138
G1 F1920 X135.587 Y135.940 E1885.11315
G0 F10500 X134.879 Y135.940
G1 F1920 X21.784 Y22.845 E1889.87672
G0 F10500 X21.784 Y23.552
G1 F1920 X134.172 Y135.940 E1894.61051
G0 F10500 X133.465 Y135.940
G1 F1920 X21.784 Y24.259 E1899.31452
G0 F10500 X21.784 Y24.966
G1 F1920 X132.758 Y135.940 E1903.98875
G0 F10500 X132.051 Y135.940
G1 F1920 X21.784 Y25.673 E1908.63321
G0 F10500 X21.784 Y26.380
G1 F1920 X131.344 Y135.940 E1913.24788
G0 F10500 X130.637 Y135.940
G1 F1920 X21.784 Y27.087 E1917.83278
G0 F10500 X21.784 Y27.794
G1 F1920 X129.930 Y135.940 E1922.38789
G0 F10500 X129.223 Y135.940
G1 F1920 X21.784 Y28.502 E1926.91321
G0 F10500 X21.784 Y29.209
G1 F1920 X128.515 Y135.940 E1931.40872
G0 F10500 X127.808 Y135.940
G1 F1920 X21.784 Y29.916 E1935.87446
G0 F10500 X21.784 Y30.623
G1 F1920 X127.101 Y135.940 E1940.31042
G0 F10500 X126.394 Y135.940
G1 F1920 X21.784 Y31.330 E1944.71660
G0 F10500 X21.784 Y32.037
G1 F1920 X125.687 Y135.940 E1949.09300
G0 F10500 X124.980 Y135.940
G1 F1920 X21.784 Y32.744 E1953.43962
G0 F10500 X21.784 Y33.451
G1 F1920 X124.273 Y135.940 E1957.75646
G0 F10500 X123.566 Y135.940
G1 F1920 X21.784 Y34.158 E1962.04353
G0 F10500 X21.784 Y34.866
G1 F1920 X122.859 Y135.940 E1966.30079
G0 F10500 X122.151 Y135.940
G1 F1920 X21.784 Y35.573 E1970.52826
G0 F10500 X21.784 Y36.280
G1 F1920 X121.444 Y135.940 E1974.72594
G0 F10500 X120.737 Y135.940
G1 F1920 X21.784 Y36.987 E1978.89385
G0 F10500 X21.784 Y37.694
G1 F1920 X120.030 Y135.940 E1983.03198
G0 F10500 X139.122 Y135.940
G1 F1920 X22.633 Y19.451 E1987.93850
G0 F10500 X23.340 Y19.451
G1 F1920 X139.829 Y135.940 E1992.84502
G0 F10500 X139.933 Y135.337
G1 F1920 X24.047 Y19.451 E1997.72615
G0 F10500 X24.754 Y19.451
G1 F1920 X139.933 Y134.630 E2002.57750
G0 F10500 X139.933 Y133.923
G1 F1920 X25.461 Y19.451 E2007.39906
G0 F10500 X26.168 Y19.451
G1 F1920 X139.933 Y133.216 E2012.19085
G0 F10500 X139.933 Y132.508
G1 F1920 X26.875 Y19.451 E2016.95284
G0 F10500 X27.582 Y19.451
G1 F1920 X139.933 Y131.801 E2021.68505
G0 F10500 X139.933 Y131.094
G1 F1920 X28.289 Y19.451 E2026.38748
G0 F10500 X28.997 Y19.451
G1 F1920 X139.933 Y130.387 E2031.06011
G0 F10500 X139.933 Y129.680
G1 F1920 X29.704 Y19.451 E2035.70297
G0 F10500 X30.411 Y19.451
G1 F1920 X139.933 Y128.973 E2040.31604
G0 F10500 X139.933 Y128.266
G1 F1920 X31.118 Y19.451 E2044.89933
G0 F10500 X31.825 Y19.451
G1 F1920 X139.933 Y127.559 E2049.45285
G0 F10500 X139.933 Y126.852
G1 F1920 X32.532 Y19.451 E2053.97659
G0 F10500 X33.239 Y19.451
G1 F1920 X139.933 Y126.145 E2058.47054
G0 F10500 X139.933 Y125.437
G1 F1920 X33.946 Y19.451 E2062.93470
G0 F10500 X34.653 Y19.451
G1 F1920 X139.933 Y124.730 E2067.36908
G0 F10500 X139.933 Y124.023
G1 F1920 X35.360 Y19.451 E2071.77368
G0 F10500 X36.068 Y19.451
G1 F1920 X139.933 Y123.316 E2076.14848
G0 F10500 X139.933 Y122.609
G1 F1920 X36.775 Y19.451 E2080.49350
G0 F10500 X37.482 Y19.451
G1 F1920 X139.933 Y121.902 E2084.80875
G0 F10500 X139.933 Y121.195
G1 F1920 X38.189 Y19.451 E2089.09421
G0 F10500 X38.896 Y19.451
G1 F1920 X139.933 Y120.488 E2093.34989
G0 F10500 X139.933 Y119.781
G1 F1920 X39.603 Y19.451 E2097.57580
G0 F10500 X40.310 Y19.451
G1 F1920 X139.933 Y119.073 E2101.77191
G0 F10500 X139.933 Y118.366
G1 F1920 X41.017 Y19.451 E2105.93823
G0 F10500 X41.724 Y19.451
G1 F1920 X139.933 Y117.659 E2110.07478
G0 F10500 X139.933 Y116.952
G1 F1920 X42.432 Y19.451 E2114.18153
G0 F10500 X43.139 Y19.451
G1 F1920 X139.933 Y116.245 E2118.25850
G0 F10500 X139.933 Y115.538
G1 F1920 X43.846 Y19.451 E2122.30569
G0 F10500 X44.553 Y19.451
G1 F1920 X139.933 Y114.831 E2126.32310
G0 F10500 X139.933 Y114.124
G1 F1920 X45.260 Y19.451 E2130.31073
G0 F10500 X45.967 Y19.451
G1 F1920 X139.933 Y113.417 E2134.26859
G0 F10500 X139.933 Y112.709
G1 F1920 X46.674 Y19.451 E2138.19664
G0 F10500 X47.381 Y19.451
G1 F1920 X139.933 Y112.002 E2142.09491
G0 F10500 X139.933 Y111.295
G1 F1920 X48.088 Y19.451 E2145.96341
G0 F10500 X48.796 Y19.451
G1 F1920 X139.933 Y110.588 E2149.80211
G0 F10500 X139.933 Y109.881
G1 F1920 X49.503 Y19.451 E2153.61102
G0 F10500 X50.210 Y19.451
G1 F1920 X139.933 Y109.174 E2157.39016
G0 F10500 X139.933 Y108.467
G1 F1920 X50.917 Y19.451 E2161.13952
G0 F10500 X51.624 Y19.451
G1 F1920 X139.933 Y107.760 E2164.85910
G0 F10500 X139.933 Y107.053
G1 F1920 X52.331 Y19.451 E2168.54890
G0 F10500 X53.038 Y19.451
G1 F1920 X139.933 Y106.346 E2172.20893
G0 F10500 X139.933 Y105.638
G1 F1920 X53.745 Y19.451 E2175.83915
G0 F10500 X54.452 Y19.451
G1 F1920 X139.933 Y104.931 E2179.43959
G0 F10500 X139.933 Y104.224
G1 F1920 X55.159 Y19.451 E2183.01026
G0 F10500 X55.867 Y19.451
G1 F1920 X139.933 Y103.517 E2186.55112
G0 F10500 X139.933 Y102.810
G1 F1920 X56.574 Y19.451 E2190.06221
G0 F10500 X57.281 Y19.451
G1 F1920 X139.933 Y102.103 E2193.54352
G0 F10500 X139.933 Y101.396
G1 F1920 X57.988 Y19.451 E2196.99505
G0 F10500 X58.695 Y19.451
G1 F1920 X139.933 Y100.689 E2200.41679
G0 F10500 X139.933 Y99.982
G1 F1920 X59.402 Y19.451 E2203.80877
G0 F10500 X60.109 Y19.451
G1 F1920 X139.933 Y99.274 E2207.17094
G0 F10500 X139.933 Y98.567
G1 F1920 X60.816 Y19.451 E2210.50333
G0 F10500 X61.523 Y19.451
G1 F1920 X139.933 Y97.860 E2213.80594
G0 F10500 X139.933 Y97.153
G1 F1920 X62.231 Y19.451 E2217.07875
G0 F10500 X62.938 Y19.451
G1 F1920 X139.933 Y96.446 E2220.32179
G0 F10500 X139.933 Y95.739
G1 F1920 X63.645 Y19.451 E2223.53504
G0 F10500 X64.352 Y19.451
G1 F1920 X139.933 Y95.032 E2226.71852
G0 F10500 X139.933 Y94.325
G1 F1920 X65.059 Y19.451 E2229.87222
G0 F10500 X65.766 Y19.451
G1 F1920 X139.933 Y93.618 E2232.99614
G0 F10500 X139.933 Y92.911
G1 F1920 X66.473 Y19.451 E2236.09028
G0 F10500 X67.180 Y19.451
G1 F1920 X139.933 Y92.203 E2239.15462
G0 F10500 X139.933 Y91.496
G1 F1920 X67.887 Y19.451 E2242.18918
G0 F10500 X68.595 Y19.451
G1 F1920 X139.933 Y90.789 E2245.19394
G0 F10500 X139.933 Y90.082
G1 F1920 X69.302 Y19.451 E2248.16892
G0 F10500 X70.009 Y19.451
G1 F1920 X139.933 Y89.375 E2251.11412
G0 F10500 X139.933 Y88.668
G1 F1920 X70.716 Y19.451 E2254.02955
G0 F10500 X71.423 Y19.451
G1 F1920 X139.933 Y87.961 E2256.91519
G0 F10500 X139.933 Y87.254
G1 F1920 X72.130 Y19.451 E2259.77106
G0 F10500 X72.837 Y19.451
G1 F1920 X139.933 Y86.547 E2262.59715
G0 F10500 X139.933 Y85.839
G1 F1920 X73.544 Y19.451 E2265.39343
G0 F10500 X74.251 Y19.451
G1 F1920 X139.933 Y85.132 E2268.15994
G0 F10500 X139.933 Y84.425
G1 F1920 X74.958 Y19.451 E2270.89667
G0 F10500 X75.666 Y19.451
G1 F1920 X139.933 Y83.718 E2273.60360
G0 F10500 X139.933 Y83.011
G1 F1920 X76.373 Y19.451 E2276.28075
G0 F10500 X77.080 Y19.451
G1 F1920 X139.933 Y82.304 E2278.92813
G0 F10500 X139.933 Y81.597
G1 F1920 X77.787 Y19.451 E2281.54572
G0 F10500 X78.494 Y19.451
G1 F1920 X139.933 Y80.890 E2284.13353
G0 F10500 X139.933 Y80.183
G1 F1920 X79.201 Y19.451 E2286.69157
G0 F10500 X79.908 Y19.451
G1 F1920 X139.933 Y79.475 E2289.21981
G0 F10500 X139.933 Y78.768
G1 F1920 X80.615 Y19.451 E2291.71826
G0 F10500 X81.322 Y19.450
G1 F1920 X139.933 Y78.061 E2294.18696
G0 F10500 X139.933 Y77.354
G1 F1920 X82.029 Y19.450 E2296.62588
G0 F10500 X82.736 Y19.450
G1 F1920 X139.933 Y76.647 E2299.03502
G0 F10500 X139.933 Y75.940
G1 F1920 X83.443 Y19.450 E2301.41438
G0 F10500 X84.150 Y19.450
G1 F1920 X139.933 Y75.233 E2303.76397
G0 F10500 X139.933 Y74.526
G1 F1920 X84.857 Y19.450 E2306.08377
G0 F10500 X85.564 Y19.450
G1 F1920 X139.933 Y73.819 E2308.37380
G0 F10500 X139.933 Y73.112
G1 F1920 X86.271 Y19.450 E2310.63404
G0 F10500 X86.979 Y19.450
G1 F1920 X139.933 Y72.404 E2312.86447
G0 F10500 X139.933 Y71.697
G1 F1920 X87.686 Y19.450 E2315.06512
G0 F10500 X88.393 Y19.450
G1 F1920 X139.933 Y70.990 E2317.23599
G0 F10500 X139.933 Y70.283
G1 F1920 X89.100 Y19.450 E2319.37707
G0 F10500 X89.807 Y19.450
G1 F1920 X139.933 Y69.576 E2321.48838
G0 F10500 X139.933 Y68.869
G1 F1920 X90.514 Y19.450 E2323.56992
G0 F10500 X91.221 Y19.450
G1 F1920 X139.933 Y68.162 E2325.62167
G0 F10500 X139.933 Y67.455
G1 F1920 X91.928 Y19.450 E2327.64364
G0 F10500 X92.635 Y19.450
G1 F1920 X139.933 Y66.748 E2329.63584
G0 F10500 X139.933 Y66.040
G1 F1920 X93.343 Y19.450 E2331.59821
G0 F10500 X94.050 Y19.450
G1 F1920 X139.933 Y65.333 E2333.53080
G0 F10500 X139.933 Y64.626
G1 F1920 X94.757 Y19.450 E2335.43362
G0 F10500 X95.464 Y19.450
G1 F1920 X139.933 Y63.919 E2337.30666
G0 F10500 X139.933 Y63.212
G1 F1920 X96.171 Y19.450 E2339.14992
G0 F10500 X96.878 Y19.450
G1 F1920 X139.933 Y62.505 E2340.96340
G0 F10500 X139.933 Y61.798
G1 F1920 X97.585 Y19.450 E2342.74710
G0 F10500 X98.292 Y19.450
G1 F1920 X139.933 Y61.091 E2344.50102
G0 F10500 X139.933 Y60.384
G1 F1920 X98.999 Y19.450 E2346.22516
G0 F10500 X99.707 Y19.450
G1 F1920 X139.933 Y59.676 E2347.91948
G0 F10500 X139.933 Y58.969
G1 F1920 X100.414 Y19.450 E2349.58402
G0 F10500 X101.121 Y19.450
G1 F1920 X139.933 Y58.262 E2351.21879
G0 F10500 X139.933 Y57.555
G1 F1920 X101.828 Y19.450 E2352.82377
G0 F10500 X102.535 Y19.450
G1 F1920 X139.933 Y56.848 E2354.39898
G0 F10500 X139.933 Y56.141
G1 F1920 X103.242 Y19.450 E2355.94441
G0 F10500 X103.949 Y19.450
G1 F1920 X139.933 Y55.434 E2357.46005
G0 F10500 X139.933 Y54.727
G1 F1920 X104.656 Y19.450 E2358.94592
G0 F10500 X105.363 Y19.450
G1 F1920 X139.933 Y54.020 E2360.40201
G0 F10500 X139.933 Y53.313
G1 F1920 X106.070 Y19.450 E2361.82833
G0 F10500 X106.778 Y19.450
G1 F1920 X139.933 Y52.605 E2363.22482
G0 F10500 X139.933 Y51.898
G1 F1920 X107.485 Y19.450 E2364.59153
G0 F10500 X108.192 Y19.450
G1 F1920 X139.933 Y51.191 E2365.92846
G0 F10500 X139.933 Y50.484
G1 F1920 X108.899 Y19.450 E2367.23562
G0 F10500 X109.606 Y19.450
G1 F1920 X139.933 Y49.777 E2368.51299
G0 F10500 X139.933 Y49.070
G1 F1920 X110.313 Y19.450 E2369.76059
G0 F10500 X111.020 Y19.450
G1 F1920 X139.933 Y48.363 E2370.97840
G0 F10500 X139.933 Y47.656
G1 F1920 X111.727 Y19.450 E2372.16644
G0 F10500 X112.434 Y19.450
G1 F1920 X139.933 Y46.949 E2373.32470
G0 F10500 X139.933 Y46.241
G1 F1920 X113.142 Y19.450 E2374.45314
G0 F10500 X113.849 Y19.450
G1 F1920 X139.933 Y45.534 E2375.55180
G0 F10500 X139.933 Y44.827
G1 F1920 X114.556 Y19.450 E2376.62068
G0 F10500 X115.263 Y19.450
G1 F1920 X139.933 Y44.120 E2377.65978
G0 F10500 X139.933 Y43.413
G1 F1920 X115.970 Y19.450 E2378.66911
G0 F10500 X116.677 Y19.450
G1 F1920 X139.933 Y42.706 E2379.64865
G0 F10500 X139.933 Y41.999
G1 F1920 X117.384 Y19.450 E2380.59842
G0 F10500 X118.091 Y19.450
G1 F1920 X139.933 Y41.292 E2381.51840
G0 F10500 X139.933 Y40.585
G1 F1920 X118.798 Y19.450 E2382.40861
G0 F10500 X119.505 Y19.450
G1 F1920 X139.933 Y39.877 E2383.26902
G0 F10500 X139.933 Y39.170
G1 F1920 X120.213 Y19.450 E2384.09962
G0 F10500 X120.920 Y19.450
G1 F1920 X139.933 Y38.463 E2384.90045
G0 F10500 X139.933 Y37.756
G1 F1920 X121.627 Y19.450 E2385.67150
G0 F10500 X122.334 Y19.450
G1 F1920 X139.933 Y37.049 E2386.41277
G0 F10500 X139.933 Y36.342
G1 F1920 X123.041 Y19.450 E2387.12427
G0 F10500 X123.748 Y19.450
G1 F1920 X139.933 Y35.635 E2387.80598
G0 F10500 X139.933 Y34.928
G1 F1920 X124.455 Y19.450 E2388.45791
G0 F10500 X125.162 Y19.450
G1 F1920 X139.933 Y34.221 E2389.08007
G0 F10500 X139.933 Y33.514
G1 F1920 X125.869 Y19.450 E2389.67245
G0 F10500 X126.577 Y19.450
G1 F1920 X139.933 Y32.806 E2390.23500
G0 F10500 X139.933 Y32.099
G1 F1920 X127.284 Y19.450 E2390.76778
G0 F10500 X127.991 Y19.450
G1 F1920 X139.933 Y31.392 E2391.27078
G0 F10500 X139.933 Y30.685
G1 F1920 X128.698 Y19.450 E2391.74399
G0 F10500 X129.405 Y19.450
G1 F1920 X139.933 Y29.978 E2392.18743
G0 F10500 X139.933 Y29.271
G1 F1920 X130.112 Y19.450 E2392.60110
G0 F10500 X130.819 Y19.450
G1 F1920 X139.933 Y28.564 E2392.98498
G0 F10500 X139.933 Y27.857
G1 F1920 X131.526 Y19.450 E2393.33908
G0 F10500 X132.233 Y19.450
G1 F1920 X139.933 Y27.150 E2393.66341
G0 F10500 X139.933 Y26.442
G1 F1920 X132.941 Y19.450 E2393.95791
G0 F10500 X133.648 Y19.450
G1 F1920 X139.933 Y25.735 E2394.22263
G0 F10500 X139.933 Y25.028
G1 F1920 X134.355 Y19.450 E2394.45758
G0 F10500 X135.062 Y19.450
G1 F1920 X139.933 Y24.321 E2394.66275
G0 F10500 X139.933 Y23.614
G1 F1920 X135.769 Y19.450 E2394.83813
G0 F10500 X136.476 Y19.450
G1 F1920 X139.933 Y22.907 E2394.98374
G0 F10500 X139.933 Y22.200
G1 F1920 X137.183 Y19.450 E2395.09957
G0 F10500 X137.890 Y19.450
G1 F1920 X139.933 Y21.493 E2395.18562
G0 F10500 X139.933 Y20.786
G1 F1920 X138.597 Y19.450 E2395.24190
G0 F10500 X139.304 Y19.450
G1 F1920 X139.933 Y20.079 E2395.26839
G0 F10500 X119.323 Y135.940
G1 F1920 X21.784 Y38.401 E2399.37674
G0 F10500 X21.784 Y39.108
G1 F1920 X118.616 Y135.940 E2403.45531
G0 F10500 X117.909 Y135.940
G1 F1920 X21.784 Y39.815 E2407.50410
G0 F10500 X21.784 Y40.522
G1 F1920 X117.202 Y135.940 E2411.52311
G0 F10500 X116.495 Y135.940
G1 F1920 X21.784 Y41.229 E2415.51235
G0 F10500 X21.784 Y41.937
G1 F1920 X115.788 Y135.940 E2419.47178
G0 F10500 X115.080 Y135.940
G1 F1920 X21.784 Y42.644 E2423.40141
G0 F10500 X21.784 Y43.351
G1 F1920 X114.373 Y135.940 E2427.30127
G0 F10500 X113.666 Y135.940
G1 F1920 X21.784 Y44.058 E2431.17134
G0 F10500 X21.784 Y44.765
G1 F1920 X112.959 Y135.940 E2435.01164
G0 F10500 X112.252 Y135.940
G1 F1920 X21.784 Y45.472 E2438.82216
G0 F10500 X21.784 Y46.179
G1 F1920 X111.545 Y135.940 E2442.60289
G0 F10500 X110.838 Y135.940
G1 F1920 X21.784 Y46.886 E2446.35385
G0 F10500 X21.784 Y47.593
G1 F1920 X110.131 Y135.940 E2450.07504
G0 F10500 X109.424 Y135.940
G1 F1920 X21.784 Y48.301 E2453.76642
G0 F10500 X21.784 Y49.008
G1 F1920 X108.716 Y135.940 E2457.42800
G0 F10500 X108.009 Y135.940
G1 F1920 X21.784 Y49.715 E2461.05980
G0 F10500 X21.784 Y50.422
G1 F1920 X107.302 Y135.940 E2464.66182
G0 F10500 X106.595 Y135.940
G1 F1920 X21.784 Y51.129 E2468.23407
G0 F10500 X21.784 Y51.836
G1 F1920 X105.888 Y135.940 E2471.77653
G0 F10500 X105.181 Y135.940
G1 F1920 X21.784 Y52.543 E2475.28922
G0 F10500 X21.784 Y53.250
G1 F1920 X104.474 Y135.940 E2478.77213
G0 F10500 X103.767 Y135.940
G1 F1920 X21.784 Y53.957 E2482.22526
G0 F10500 X21.784 Y54.665
G1 F1920 X103.060 Y135.940 E2485.64859
G0 F10500 X102.352 Y135.940
G1 F1920 X21.784 Y55.372 E2489.04212
G0 F10500 X21.784 Y56.079
G1 F1920 X101.645 Y135.940 E2492.40587
G0 F10500 X100.938 Y135.940
G1 F1920 X21.784 Y56.786 E2495.73984
G0 F10500 X21.784 Y57.493
G1 F1920 X100.231 Y135.940 E2499.04403
G0 F10500 X99.524 Y135.940
G1 F1920 X21.784 Y58.200 E2502.31844
G0 F10500 X21.784 Y58.907
G1 F1920 X98.817 Y135.940 E2505.56308
G0 F10500 X98.110 Y135.940
G1 F1920 X21.784 Y59.614 E2508.77793
G0 F10500 X21.784 Y60.321
G1 F1920 X97.403 Y135.940 E2511.96301
G0 F10500 X96.696 Y135.940
G1 F1920 X21.784 Y61.028 E2515.11831
G0 F10500 X21.784 Y61.736
G1 F1920 X95.989 Y135.940 E2518.24381
G0 F10500 X95.281 Y135.940
G1 F1920 X21.784 Y62.443 E2521.33951
G0 F10500 X21.784 Y63.150
G1 F1920 X94.574 Y135.940 E2524.40542
G0 F10500 X93.867 Y135.940
G1 F1920 X21.784 Y63.857 E2527.44156
G0 F10500 X21.784 Y64.564
G1 F1920 X93.160 Y135.940 E2530.44793
G0 F10500 X92.453 Y135.940
G1 F1920 X21.784 Y65.271 E2533.42451
G0 F10500 X21.784 Y65.978
G1 F1920 X91.746 Y135.940 E2536.37131
G0 F10500 X91.039 Y135.940
G1 F1920 X21.784 Y66.685 E2539.28834
G0 F10500 X21.784 Y67.392
G1 F1920 X90.332 Y135.940 E2542.17558
G0 F10500 X89.625 Y135.940
G1 F1920 X21.784 Y68.100 E2545.03303
G0 F10500 X21.784 Y68.807
G1 F1920 X88.917 Y135.940 E2547.86068
G0 F10500 X88.210 Y135.940
G1 F1920 X21.784 Y69.514 E2550.65854
G0 F10500 X21.784 Y70.221
G1 F1920 X87.503 Y135.940 E2553.42663
G0 F10500 X86.796 Y135.940
G1 F1920 X21.784 Y70.928 E2556.16494
G0 F10500 X21.784 Y71.635
G1 F1920 X86.089 Y135.940 E2558.87347
G0 F10500 X85.382 Y135.940
G1 F1920 X21.784 Y72.342 E2561.55222
G0 F10500 X21.784 Y73.049
G1 F1920 X84.675 Y135.940 E2564.20120
G0 F10500 X83.968 Y135.940
G1 F1920 X21.784 Y73.756 E2566.82039
G0 F10500 X21.784 Y74.464
G1 F1920 X83.261 Y135.940 E2569.40978
G0 F10500 X82.554 Y135.940
G1 F1920 X21.784 Y75.171 E2571.96940
G0 F10500 X21.784 Y75.878
G1 F1920 X81.846 Y135.940 E2574.49921
G0 F10500 X81.139 Y135.940
G1 F1920 X21.784 Y76.585 E2576.99925
G0 F10500 X21.784 Y77.292
G1 F1920 X80.432 Y135.940 E2579.46951
G0 F10500 X79.725 Y135.940
G1 F1920 X21.784 Y77.999 E2581.90999
G0 F10500 X21.784 Y78.706
G1 F1920 X79.018 Y135.940 E2584.32069
G0 F10500 X78.311 Y135.940
G1 F1920 X21.784 Y79.413 E2586.70161
G0 F10500 X21.784 Y80.120
G1 F1920 X77.604 Y135.940 E2589.05275
G0 F10500 X76.897 Y135.940
G1 F1920 X21.784 Y80.827 E2591.37411
G0 F10500 X21.784 Y81.535
G1 F1920 X76.190 Y135.940 E2593.66567
G0 F10500 X75.482 Y135.940
G1 F1920 X21.784 Y82.242 E2595.92744
G0 F10500 X21.784 Y82.949
G1 F1920 X74.775 Y135.940 E2598.15942
G0 F10500 X74.068 Y135.940
G1 F1920 X21.784 Y83.656 E2600.36163
G0 F10500 X21.784 Y84.363
G1 F1920 X73.361 Y135.940 E2602.53405
G0 F10500 X72.654 Y135.940
G1 F1920 X21.784 Y85.070 E2604.67670
G0 F10500 X21.784 Y85.777
G1 F1920 X71.947 Y135.940 E2606.78957
G0 F10500 X71.240 Y135.940
G1 F1920 X21.784 Y86.484 E2608.87266
G0 F10500 X21.784 Y87.191
G1 F1920 X70.533 Y135.940 E2610.92597
G0 F10500 X69.826 Y135.940
G1 F1920 X21.784 Y87.899 E2612.94948
G0 F10500 X21.784 Y88.606
G1 F1920 X69.118 Y135.940 E2614.94319
G0 F10500 X68.411 Y135.940
G1 F1920 X21.784 Y89.313 E2616.90712
G0 F10500 X21.784 Y90.020
G1 F1920 X67.704 Y135.940 E2618.84128
G0 F10500 X66.997 Y135.940
G1 F1920 X21.784 Y90.727 E2620.74565
G0 F10500 X21.784 Y91.434
G1 F1920 X66.290 Y135.940 E2622.62025
G0 F10500 X65.583 Y135.940
G1 F1920 X21.784 Y92.141 E2624.46506
G0 F10500 X21.784 Y92.848
G1 F1920 X64.876 Y135.940 E2626.28010
G0 F10500 X64.169 Y135.940
G1 F1920 X21.784 Y93.555 E2628.06536
G0 F10500 X21.784 Y94.262
G1 F1920 X63.462 Y135.940 E2629.82084
G0 F10500 X62.755 Y135.940
G1 F1920 X21.784 Y94.970 E2631.54652
G0 F10500 X21.784 Y95.677
G1 F1920 X62.047 Y135.940 E2633.24240
G0 F10500 X61.340 Y135.940
G1 F1920 X21.784 Y96.384 E2634.90850
G0 F10500 X21.784 Y97.091
G1 F1920 X60.633 Y135.940 E2636.54482
G0 F10500 X59.926 Y135.940
G1 F1920 X21.784 Y97.798 E2638.15137
G0 F10500 X21.784 Y98.505
G1 F1920 X59.219 Y135.940 E2639.72813
G0 F10500 X58.512 Y135.940
G1 F1920 X21.784 Y99.212 E2641.27512
G0 F10500 X21.784 Y99.919
G1 F1920 X57.805 Y135.940 E2642.79232
G0 F10500 X57.098 Y135.940
G1 F1920 X21.784 Y100.626 E2644.27975
G0 F10500 X21.784 Y101.334
G1 F1920 X56.391 Y135.940 E2645.73738
G0 F10500 X55.683 Y135.940
G1 F1920 X21.784 Y102.041 E2647.16521
G0 F10500 X21.784 Y102.748
G1 F1920 X54.976 Y135.940 E2648.56326
G0 F10500 X54.269 Y135.940
G1 F1920 X21.784 Y103.455 E2649.93153
G0 F10500 X21.784 Y104.162
G1 F1920 X53.562 Y135.940 E2651.27002
G0 F10500 X52.855 Y135.940
G1 F1920 X21.784 Y104.869 E2652.57873
G0 F10500 X21.784 Y105.576
G1 F1920 X52.148 Y135.940 E2653.85766
G0 F10500 X51.441 Y135.940
G1 F1920 X21.784 Y106.283 E2655.10682
G0 F10500 X21.784 Y106.990
G1 F1920 X50.734 Y135.940 E2656.32619
G0 F10500 X50.027 Y135.940
G1 F1920 X21.784 Y107.698 E2657.51577
G0 F10500 X21.784 Y108.405
G1 F1920 X49.319 Y135.940 E2658.67555
G0 F10500 X48.612 Y135.940
G1 F1920 X21.784 Y109.112 E2659.80554
G0 F10500 X21.784 Y109.819
G1 F1920 X47.905 Y135.940 E2660.90576
G0 F10500 X47.198 Y135.940
G1 F1920 X21.784 Y110.526 E2661.97620
G0 F10500 X21.784 Y111.233
G1 F1920 X46.491 Y135.940 E2663.01686
G0 F10500 X45.784 Y135.940
G1 F1920 X21.784 Y111.940 E2664.02774
G0 F10500 X21.784 Y112.647
G1 F1920 X45.077 Y135.940 E2665.00885
G0 F10500 X44.370 Y135.940
G1 F1920 X21.784 Y113.354 E2665.96017
G0 F10500 X21.784 Y114.061
G1 F1920 X43.663 Y135.940 E2666.88171
G0 F10500 X42.956 Y135.940
G1 F1920 X21.784 Y114.769 E2667.77346
G0 F10500 X21.784 Y115.476
G1 F1920 X42.248 Y135.940 E2668.63540
G0 F10500 X41.541 Y135.940
G1 F1920 X21.784 Y116.183 E2669.46757
G0 F10500 X21.784 Y116.890
G1 F1920 X40.834 Y135.940 E2670.26996
G0 F10500 X40.127 Y135.940
G1 F1920 X21.784 Y117.597 E2671.04256
G0 F10500 X21.784 Y118.304
G1 F1920 X39.420 Y135.940 E2671.78539
G0 F10500 X38.713 Y135.940
G1 F1920 X21.784 Y119.011 E2672.49844
G0 F10500 X21.784 Y119.718
G1 F1920 X38.006 Y135.940 E2673.18172
G0 F10500 X37.299 Y135.940
G1 F1920 X21.784 Y120.425 E2673.83521
G0 F10500 X21.784 Y121.133
G1 F1920 X36.592 Y135.940 E2674.45890
G0 F10500 X35.884 Y135.940
G1 F1920 X21.784 Y121.840 E2675.05279
G0 F10500 X21.784 Y122.547
G1 F1920 X35.177 Y135.940 E2675.61691
G0 F10500 X34.470 Y135.940
G1 F1920 X21.784 Y123.254 E2676.15124
G0 F10500 X21.784 Y123.961
G1 F1920 X33.763 Y135.940 E2676.65580
G0 F10500 X33.056 Y135.940
G1 F1920 X21.784 Y124.668 E2677.13058
G0 F10500 X21.784 Y125.375
G1 F1920 X32.349 Y135.940 E2677.57558
G0 F10500 X31.642 Y135.940
G1 F1920 X21.784 Y126.082 E2677.99080
G0 F10500 X21.784 Y126.789
G1 F1920 X30.935 Y135.940 E2678.37624
G0 F10500 X30.228 Y135.940
G1 F1920 X21.784 Y127.497 E2678.73188
G0 F10500 X21.784 Y128.204
G1 F1920 X29.521 Y135.940 E2679.05774
G0 F10500 X28.813 Y135.940
G1 F1920 X21.784 Y128.911 E2679.35380
G0 F10500 X21.784 Y129.618
G1 F1920 X28.106 Y135.940 E2679.62008
G0 F10500 X27.399 Y135.940
G1 F1920 X21.784 Y130.325 E2679.85659
G0 F10500 X21.784 Y131.032
G1 F1920 X26.692 Y135.940 E2680.06331
G0 F10500 X25.985 Y135.940
G1 F1920 X21.784 Y131.739 E2680.24026
G0 F10500 X21.784 Y132.446
G1 F1920 X25.278 Y135.940 E2680.38743
G0 F10500 X24.571 Y135.940
G1 F1920 X21.784 Y133.153 E2680.50482
G0 F10500 X21.784 Y133.860
G1 F1920 X23.864 Y135.940 E2680.59243
G0 F10500 X23.157 Y135.940
G1 F1920 X21.784 Y134.568 E2680.65024
G0 F10500 X21.784 Y135.275
G1 F1920 X22.449 Y135.940 E2680.67825
;LAYER:3
G0 F10500 X21.610 Y136.116 Z1.565
;TYPE:WALL-INNER
G1 F1740 X21.610 Y19.909 E2684.13928
G1 X140.109 Y19.908 E2687.66858
G1 X140.109 Y136.116 E2691.12965
G1 X21.610 Y136.116 E2694.65895
G0 F10500 X21.110 Y136.616
;TYPE:WALL-OUTER
G1 F1500 X21.110 Y19.409 E2698.14977
G1 X140.609 Y19.408 E2701.70886
G1 X140.609 Y136.616 E2705.19971
G1 X21.110 Y136.616 E2708.75879
G0 F10500 X21.370 Y136.266
G0 X23.157 Y135.941
;TYPE:FILL
G1 F1980 X137.866 Y21.233 E2713.59032
G0 F10500 X137.906 Y21.233
G1 F1980 X139.933 Y23.260 E2713.67570
G0 F10500 X139.933 Y26.236
G1 F1980 X30.228 Y135.941 E2718.29648
G0 F10500 X33.410 Y135.940
G1 F1980 X21.784 Y124.315 E2718.78615
G0 F10500 X21.785 Y123.171
G1 F1980 X123.723 Y21.233 E2723.07978
G0 F10500 X123.764 Y21.233
G1 F1980 X139.933 Y37.403 E2723.76084
G0 F10500 X139.933 Y33.307
G1 F1980 X37.299 Y135.941 E2728.08379
G0 F10500 X26.339 Y135.940
G1 F1980 X21.784 Y131.386 E2728.27563
G0 F10500 X21.785 Y130.242
G1 F1980 X130.794 Y21.233 E2732.86709
G0 F10500 X130.835 Y21.233
G1 F1980 X139.933 Y30.332 E2733.25032
G0 F10500 X139.933 Y40.378
G1 F1980 X44.370 Y135.941 E2737.27544
G0 F10500 X47.552 Y135.940
G1 F1980 X21.784 Y110.172 E2738.36079
G0 F10500 X21.785 Y109.029
G1 F1980 X109.581 Y21.233 E2742.05876
G0 F10500 X109.622 Y21.233
G1 F1980 X139.933 Y51.545 E2743.33549
G0 F10500 X139.933 Y54.520
G1 F1980 X58.513 Y135.941 E2746.76492
G0 F10500 X54.623 Y135.940
G1 F1980 X21.784 Y103.101 E2748.14810
G0 F10500 X21.785 Y101.958
G1 F1980 X102.510 Y21.233 E2751.54825
G0 F10500 X102.550 Y21.233
G1 F1980 X139.933 Y58.616 E2753.12282
G0 F10500 X139.933 Y47.449
G1 F1980 X51.442 Y135.941 E2756.85009
G0 F10500 X40.481 Y135.940
G1 F1980 X21.784 Y117.243 E2757.63761
G0 F10500 X21.785 Y116.100
G1 F1980 X116.652 Y21.233 E2761.63341
G0 F10500 X116.693 Y21.233
G1 F1980 X139.933 Y44.474 E2762.61230
G0 F10500 X139.933 Y61.591
G1 F1980 X65.584 Y135.941 E2765.74391
G0 F10500 X68.765 Y135.940
G1 F1980 X21.784 Y88.959 E2767.72275
G0 F10500 X21.785 Y87.816
G1 F1980 X88.368 Y21.233 E2770.52723
G0 F10500 X88.408 Y21.233
G1 F1980 X139.933 Y72.758 E2772.69747
G0 F10500 X139.933 Y75.733
G1 F1980 X79.726 Y135.941 E2775.23341
G0 F10500 X75.836 Y135.940
G1 F1980 X21.784 Y81.888 E2777.51008
G0 F10500 X21.785 Y80.745
G1 F1980 X81.297 Y21.233 E2780.01673
G0 F10500 X81.337 Y21.233
G1 F1980 X139.933 Y79.829 E2782.48480
G0 F10500 X139.933 Y68.662
G1 F1980 X72.655 Y135.941 E2785.31857
G0 F10500 X61.694 Y135.940
G1 F1980 X21.784 Y96.030 E2786.99959
G0 F10500 X21.785 Y94.887
G1 F1980 X95.439 Y21.233 E2790.10190
G0 F10500 X95.479 Y21.233
G1 F1980 X139.933 Y65.687 E2791.97430
G0 F10500 X139.933 Y82.805
G1 F1980 X86.797 Y135.941 E2794.21239
G0 F10500 X89.978 Y135.940
G1 F1980 X21.784 Y67.746 E2797.08473
G0 F10500 X21.785 Y66.603
G1 F1980 X67.154 Y21.233 E2798.99569
G0 F10500 X67.196 Y21.234
G1 F1980 X139.933 Y93.971 E2802.05938
G0 F10500 X139.933 Y96.947
G1 F1980 X100.939 Y135.941 E2803.70181
G0 F10500 X104.120 Y135.940
G1 F1980 X21.784 Y53.604 E2807.16981
G0 F10500 X21.785 Y52.460
G1 F1980 X53.012 Y21.233 E2808.48509
G0 F10500 X53.054 Y21.234
G1 F1980 X139.933 Y108.113 E2812.14444
G0 F10500 X139.933 Y111.089
G1 F1980 X115.081 Y135.941 E2813.19121
G0 F10500 X118.262 Y135.940
G1 F1980 X21.784 Y39.462 E2817.25487
G0 F10500 X21.785 Y38.318
G1 F1980 X38.870 Y21.233 E2817.97449
G0 F10500 X38.912 Y21.234
G1 F1980 X139.933 Y122.255 E2822.22950
G0 F10500 X139.933 Y125.231
G1 F1980 X129.223 Y135.941 E2822.68061
G0 F10500 X132.405 Y135.940
G1 F1980 X21.784 Y25.320 E2827.33995
G0 F10500 X21.785 Y24.176
G1 F1980 X24.728 Y21.233 E2827.46391
G0 F10500 X24.769 Y21.234
G1 F1980 X139.476 Y135.940 E2832.29535
G0 F10500 X136.294 Y135.941
G1 F1980 X139.933 Y132.302 E2832.44863
G0 F10500 X139.933 Y129.327
G1 F1980 X31.841 Y21.234 E2837.00149
G0 F10500 X31.799 Y21.233
G1 F1980 X21.785 Y31.247 E2837.42328
G0 F10500 X21.784 Y32.391
G1 F1980 X125.333 Y135.940 E2841.78477
G0 F10500 X122.152 Y135.941
G1 F1980 X139.933 Y118.160 E2842.53371
G0 F10500 X139.933 Y115.184
G1 F1980 X45.983 Y21.234 E2846.49089
G0 F10500 X45.941 Y21.233
G1 F1980 X21.785 Y45.389 E2847.50834
G0 F10500 X21.784 Y46.533
G1 F1980 X111.191 Y135.940 E2851.27417
G0 F10500 X108.010 Y135.941
G1 F1980 X139.933 Y104.018 E2852.61877
G0 F10500 X139.933 Y101.042
G1 F1980 X60.125 Y21.234 E2855.98028
G0 F10500 X60.083 Y21.233
G1 F1980 X21.785 Y59.532 E2857.59342
G0 F10500 X21.784 Y60.675
G1 F1980 X97.049 Y135.940 E2860.76359
G0 F10500 X93.868 Y135.941
G1 F1980 X139.933 Y89.876 E2862.70385
G0 F10500 X139.933 Y86.900
G1 F1980 X74.267 Y21.234 E2865.46970
G0 F10500 X74.225 Y21.233
G1 F1980 X21.785 Y73.674 E2867.67850
G0 F10500 X21.784 Y74.817
G1 F1980 X82.907 Y135.940 E2870.25300
G0 F10500 X83.121 Y21.883
;TYPE:SKIN
G1 F2400 X84.922 Y20.083 E2870.32884
G0 F10500 X85.629 Y20.083
G1 F2400 X83.828 Y21.883 E2870.40468
G0 F10500 X84.536 Y21.883
G1 F2400 X86.336 Y20.083 E2870.48049
G0 F10500 X87.043 Y20.083
G1 F2400 X85.243 Y21.883 E2870.55631
G0 F10500 X85.950 Y21.883
G1 F2400 X87.750 Y20.083 E2870.63213
G0 F10500 X88.457 Y20.083
G1 F2400 X86.657 Y21.883 E2870.70794
G0 F10500 X87.364 Y21.883
G1 F2400 X89.164 Y20.083 E2870.78376
G0 F10500 X89.871 Y20.083
G1 F2400 X88.071 Y21.883 E2870.85958
G0 F10500 X88.778 Y21.883
G1 F2400 X90.578 Y20.083 E2870.93539
G0 F10500 X91.286 Y20.083
G1 F2400 X89.485 Y21.883 E2871.01123
G0 F10500 X90.192 Y21.883
G1 F2400 X91.993 Y20.083 E2871.08707
G0 F10500 X92.700 Y20.083
G1 F2400 X90.899 Y21.883 E2871.16290
G0 F10500 X91.607 Y21.883
G1 F2400 X93.407 Y20.083 E2871.23872
G0 F10500 X94.114 Y20.083
G1 F2400 X92.314 Y21.883 E2871.31453
G0 F10500 X93.021 Y21.883
G1 F2400 X94.821 Y20.083 E2871.39035
G0 F10500 X95.528 Y20.083
G1 F2400 X93.728 Y21.883 E2871.46617
G0 F10500 X94.435 Y21.883
G1 F2400 X96.235 Y20.083 E2871.54198
G0 F10500 X96.942 Y20.083
G1 F2400 X95.142 Y21.883 E2871.61780
G0 F10500 X95.849 Y21.883
G1 F2400 X97.650 Y20.083 E2871.69364
G0 F10500 X98.357 Y20.083
G1 F2400 X96.556 Y21.883 E2871.76947
G0 F10500 X97.263 Y21.883
G1 F2400 X99.064 Y20.083 E2871.84531
G0 F10500 X99.771 Y20.083
G1 F2400 X97.971 Y21.883 E2871.92113
G0 F10500 X98.678 Y21.883
G1 F2400 X100.478 Y20.083 E2871.99694
G0 F10500 X101.185 Y20.083
G1 F2400 X99.385 Y21.883 E2872.07276
G0 F10500 X84.215 Y20.083
G1 F2400 X82.414 Y21.883 E2872.14860
G0 F10500 X81.707 Y21.883
G1 F2400 X83.507 Y20.083 E2872.22441
G0 F10500 X82.800 Y20.083
G1 F2400 X81.000 Y21.883 E2872.30023
G0 F10500 X80.293 Y21.883
G1 F2400 X82.093 Y20.083 E2872.37604
G0 F10500 X81.386 Y20.083
G1 F2400 X79.586 Y21.883 E2872.45186
G0 F10500 X78.879 Y21.883
G1 F2400 X80.679 Y20.083 E2872.52768
G0 F10500 X79.972 Y20.083
G1 F2400 X78.172 Y21.883 E2872.60349
G0 F10500 X77.464 Y21.883
G1 F2400 X79.265 Y20.083 E2872.67933
G0 F10500 X78.558 Y20.083
G1 F2400 X76.757 Y21.883 E2872.75517
G0 F10500 X76.050 Y21.883
G1 F2400 X77.851 Y20.083 E2872.83100
G0 F10500 X77.143 Y20.083
G1 F2400 X75.343 Y21.883 E2872.90682
G0 F10500 X74.636 Y21.883
G1 F2400 X76.436 Y20.083 E2872.98264
G0 F10500 X75.729 Y20.083
G1 F2400 X73.929 Y21.883 E2873.05845
G0 F10500 X73.222 Y21.883
G1 F2400 X75.022 Y20.083 E2873.13427
G0 F10500 X74.315 Y20.083
G1 F2400 X72.515 Y21.883 E2873.21009
G0 F10500 X71.808 Y21.883
G1 F2400 X73.608 Y20.083 E2873.28590
G0 F10500 X72.901 Y20.083
G1 F2400 X71.101 Y21.883 E2873.36172
G0 F10500 X70.393 Y21.883
G1 F2400 X72.194 Y20.083 E2873.43755
G0 F10500 X71.487 Y20.083
G1 F2400 X69.686 Y21.883 E2873.51339
G0 F10500 X68.979 Y21.883
G1 F2400 X70.779 Y20.083 E2873.58921
G0 F10500 X70.072 Y20.083
G1 F2400 X68.272 Y21.883 E2873.66502
G0 F10500 X67.565 Y21.883
G1 F2400 X69.365 Y20.083 E2873.74084
G0 F10500 X68.658 Y20.083
G1 F2400 X66.858 Y21.883 E2873.81666
G0 F10500 X66.151 Y21.883
G1 F2400 X67.951 Y20.083 E2873.89247
G0 F10500 X67.244 Y20.083
G1 F2400 X65.444 Y21.883 E2873.96829
G0 F10500 X64.737 Y21.883
G1 F2400 X66.537 Y20.083 E2874.04410
G0 F10500 X65.830 Y20.083
G1 F2400 X64.029 Y21.883 E2874.11994
G0 F10500 X63.322 Y21.883
G1 F2400 X65.123 Y20.083 E2874.19578
G0 F10500 X64.416 Y20.083
G1 F2400 X62.615 Y21.883 E2874.27162
G0 F10500 X61.908 Y21.883
G1 F2400 X63.708 Y20.083 E2874.34743
G0 F10500 X63.001 Y20.083
G1 F2400 X61.201 Y21.883 E2874.42325
G0 F10500 X60.494 Y21.883
G1 F2400 X62.294 Y20.083 E2874.49906
G0 F10500 X61.587 Y20.083
G1 F2400 X59.787 Y21.883 E2874.57488
G0 F10500 X59.080 Y21.883
G1 F2400 X60.880 Y20.083 E2874.65070
G0 F10500 X60.173 Y20.083
G1 F2400 X58.373 Y21.883 E2874.72651
G0 F10500 X57.665 Y21.883
G1 F2400 X59.466 Y20.083 E2874.80235
G0 F10500 X58.759 Y20.083
G1 F2400 X56.958 Y21.883 E2874.87819
G0 F10500 X56.251 Y21.883
G1 F2400 X58.052 Y20.083 E2874.95402
G0 F10500 X57.344 Y20.083
G1 F2400 X55.544 Y21.883 E2875.02984
G0 F10500 X54.837 Y21.883
G1 F2400 X56.637 Y20.083 E2875.10566
G0 F10500 X55.930 Y20.083
G1 F2400 X54.130 Y21.883 E2875.18147
G0 F10500 X53.423 Y21.883
G1 F2400 X55.223 Y20.083 E2875.25729
G0 F10500 X54.516 Y20.083
G1 F2400 X52.716 Y21.883 E2875.33310
G0 F10500 X52.009 Y21.883
G1 F2400 X53.809 Y20.083 E2875.40892
G0 F10500 X53.102 Y20.083
G1 F2400 X51.302 Y21.883 E2875.48474
G0 F10500 X50.594 Y21.883
G1 F2400 X52.395 Y20.083 E2875.56057
G0 F10500 X51.688 Y20.083
G1 F2400 X49.887 Y21.883 E2875.63641
G0 F10500 X49.180 Y21.883
G1 F2400 X50.980 Y20.083 E2875.71223
G0 F10500 X50.273 Y20.083
G1 F2400 X48.473 Y21.883 E2875.78804
G0 F10500 X47.766 Y21.883
G1 F2400 X49.566 Y20.083 E2875.86386
G0 F10500 X48.859 Y20.083
G1 F2400 X47.059 Y21.883 E2875.93968
G0 F10500 X46.352 Y21.883
G1 F2400 X48.152 Y20.083 E2876.01549
G0 F10500 X47.445 Y20.083
G1 F2400 X45.645 Y21.883 E2876.09131
G0 F10500 X44.938 Y21.883
G1 F2400 X46.738 Y20.083 E2876.16712
G0 F10500 X46.031 Y20.083
G1 F2400 X44.230 Y21.883 E2876.24296
G0 F10500 X43.523 Y21.883
G1 F2400 X45.324 Y20.083 E2876.31880
G0 F10500 X44.617 Y20.083
G1 F2400 X42.816 Y21.883 E2876.39464
G0 F10500 X42.109 Y21.883
G1 F2400 X43.909 Y20.083 E2876.47045
G0 F10500 X43.202 Y20.083
G1 F2400 X41.402 Y21.883 E2876.54627
G0 F10500 X40.695 Y21.883
G1 F2400 X42.495 Y20.083 E2876.62208
G0 F10500 X41.788 Y20.083
G1 F2400 X39.988 Y21.883 E2876.69790
G0 F10500 X39.281 Y21.883
G1 F2400 X41.081 Y20.083 E2876.77372
G0 F10500 X40.374 Y20.083
G1 F2400 X38.574 Y21.883 E2876.84953
G0 F10500 X37.866 Y21.883
G1 F2400 X39.667 Y20.083 E2876.92537
G0 F10500 X38.960 Y20.083
G1 F2400 X37.159 Y21.883 E2877.00121
G0 F10500 X36.452 Y21.883
G1 F2400 X38.253 Y20.083 E2877.07704
G0 F10500 X37.545 Y20.083
G1 F2400 X35.745 Y21.883 E2877.15286
G0 F10500 X35.038 Y21.883
G1 F2400 X36.838 Y20.083 E2877.22868
G0 F10500 X36.131 Y20.083
G1 F2400 X34.331 Y21.883 E2877.30449
G0 F10500 X33.624 Y21.883
G1 F2400 X35.424 Y20.083 E2877.38031
G0 F10500 X34.717 Y20.083
G1 F2400 X32.917 Y21.883 E2877.45612
G0 F10500 X32.210 Y21.883
G1 F2400 X34.010 Y20.083 E2877.53194
G0 F10500 X33.303 Y20.083
G1 F2400 X31.503 Y21.883 E2877.60776
G0 F10500 X30.795 Y21.883
G1 F2400 X32.596 Y20.083 E2877.68359
G0 F10500 X31.889 Y20.083
G1 F2400 X30.088 Y21.883 E2877.75943
G0 F10500 X29.381 Y21.883
G1 F2400 X31.181 Y20.083 E2877.83525
G0 F10500 X30.474 Y20.083
G1 F2400 X28.674 Y21.883 E2877.91106
G0 F10500 X27.967 Y21.883
G1 F2400 X29.767 Y20.083 E2877.98688
G0 F10500 X29.060 Y20.083
G1 F2400 X27.260 Y21.883 E2878.06270
G0 F10500 X26.553 Y21.883
G1 F2400 X28.353 Y20.083 E2878.13851
G0 F10500 X27.646 Y20.083
G1 F2400 X25.846 Y21.883 E2878.21433
G0 F10500 X25.139 Y21.883
G1 F2400 X26.939 Y20.083 E2878.29014
G0 F10500 X26.232 Y20.083
G1 F2400 X24.431 Y21.883 E2878.36598
G0 F10500 X23.724 Y21.883
G1 F2400 X25.525 Y20.083 E2878.44182
G0 F10500 X24.818 Y20.083
G1 F2400 X23.017 Y21.883 E2878.51766
G0 F10500 X22.310 Y21.883
G1 F2400 X24.110 Y20.083 E2878.59347
G0 F10500 X23.403 Y20.083
G1 F2400 X21.784 Y21.702 E2878.66166
G0 F10500 X21.784 Y20.995
G1 F2400 X22.696 Y20.083 E2878.70008
G0 F10500 X21.989 Y20.083
G1 F2400 X21.784 Y20.288 E2878.70871
G0 F10500 X100.092 Y21.883
G1 F2400 X101.892 Y20.083 E2878.78453
G0 F10500 X102.599 Y20.083
G1 F2400 X100.799 Y21.883 E2878.86034
G0 F10500 X101.506 Y21.883
G1 F2400 X103.306 Y20.083 E2878.93616
G0 F10500 X104.013 Y20.083
G1 F2400 X102.213 Y21.883 E2879.01198
G0 F10500 X102.920 Y21.883
G1 F2400 X104.721 Y20.083 E2879.08781
G0 F10500 X105.428 Y20.083
G1 F2400 X103.627 Y21.883 E2879.16365
G0 F10500 X104.335 Y21.883
G1 F2400 X106.135 Y20.083 E2879.23947
G0 F10500 X106.842 Y20.083
G1 F2400 X105.042 Y21.883 E2879.31528
G0 F10500 X105.749 Y21.883
G1 F2400 X107.549 Y20.083 E2879.39110
G0 F10500 X108.256 Y20.083
G1 F2400 X106.456 Y21.883 E2879.46692
G0 F10500 X107.163 Y21.883
G1 F2400 X108.963 Y20.083 E2879.54273
G0 F10500 X109.670 Y20.083
G1 F2400 X107.870 Y21.883 E2879.61855
G0 F10500 X108.577 Y21.883
G1 F2400 X110.377 Y20.083 E2879.69436
G0 F10500 X111.085 Y20.083
G1 F2400 X109.284 Y21.883 E2879.77020
G0 F10500 X109.991 Y21.883
G1 F2400 X111.792 Y20.083 E2879.84604
G0 F10500 X112.499 Y20.083
G1 F2400 X110.698 Y21.883 E2879.92187
G0 F10500 X111.406 Y21.883
G1 F2400 X113.206 Y20.083 E2879.99769
G0 F10500 X113.913 Y20.083
G1 F2400 X112.113 Y21.883 E2880.07351
G0 F10500 X112.820 Y21.883
G1 F2400 X114.620 Y20.083 E2880.14932
G0 F10500 X115.327 Y20.083
G1 F2400 X113.527 Y21.883 E2880.22514
G0 F10500 X114.234 Y21.883
G1 F2400 X116.034 Y20.083 E2880.30096
G0 F10500 X116.741 Y20.083
G1 F2400 X114.941 Y21.883 E2880.37677
G0 F10500 X115.648 Y21.883
G1 F2400 X117.449 Y20.083 E2880.45261
G0 F10500 X118.156 Y20.083
G1 F2400 X116.355 Y21.883 E2880.52845
G0 F10500 X117.062 Y21.883
G1 F2400 X118.863 Y20.083 E2880.60428
G0 F10500 X119.570 Y20.083
G1 F2400 X117.770 Y21.883 E2880.68010
G0 F10500 X118.477 Y21.883
G1 F2400 X120.277 Y20.083 E2880.75592
G0 F10500 X120.984 Y20.083
G1 F2400 X119.184 Y21.883 E2880.83173
G0 F10500 X119.891 Y21.883
G1 F2400 X121.691 Y20.083 E2880.90755
G0 F10500 X122.398 Y20.083
G1 F2400 X120.598 Y21.883 E2880.98336
G0 F10500 X121.305 Y21.883
G1 F2400 X123.105 Y20.083 E2881.05918
G0 F10500 X123.812 Y20.083
G1 F2400 X122.012 Y21.883 E2881.13500
G0 F10500 X122.719 Y21.883
G1 F2400 X124.520 Y20.083 E2881.21083
G0 F10500 X125.227 Y20.083
G1 F2400 X123.426 Y21.883 E2881.28667
G0 F10500 X124.134 Y21.883
G1 F2400 X125.934 Y20.083 E2881.36249
G0 F10500 X126.641 Y20.083
G1 F2400 X124.841 Y21.883 E2881.43830
G0 F10500 X125.548 Y21.883
G1 F2400 X127.348 Y20.083 E2881.51412
G0 F10500 X128.055 Y20.083
G1 F2400 X126.255 Y21.883 E2881.58993
G0 F10500 X126.962 Y21.883
G1 F2400 X128.762 Y20.083 E2881.66575
G0 F10500 X129.469 Y20.083
G1 F2400 X127.669 Y21.883 E2881.74157
G0 F10500 X128.376 Y21.883
G1 F2400 X130.176 Y20.083 E2881.81738
G0 F10500 X130.884 Y20.083
G1 F2400 X129.083 Y21.883 E2881.89322
G0 F10500 X129.790 Y21.883
G1 F2400 X131.591 Y20.083 E2881.96906
G0 F10500 X132.298 Y20.083
G1 F2400 X130.497 Y21.883 E2882.04489
G0 F10500 X131.205 Y21.883
G1 F2400 X133.005 Y20.083 E2882.12071
G0 F10500 X133.712 Y20.083
G1 F2400 X131.912 Y21.883 E2882.19653
G0 F10500 X132.619 Y21.883
G1 F2400 X134.419 Y20.083 E2882.27234
G0 F10500 X135.126 Y20.083
G1 F2400 X133.326 Y21.883 E2882.34816
G0 F10500 X134.033 Y21.883
G1 F2400 X135.833 Y20.083 E2882.42398
G0 F10500 X136.540 Y20.083
G1 F2400 X134.740 Y21.883 E2882.49979
G0 F10500 X135.447 Y21.883
G1 F2400 X137.248 Y20.083 E2882.57563
G0 F10500 X137.955 Y20.083
G1 F2400 X136.154 Y21.883 E2882.65147
G0 F10500 X136.861 Y21.883
G1 F2400 X138.662 Y20.083 E2882.72730
G0 F10500 X139.369 Y20.083
G1 F2400 X137.569 Y21.883 E2882.80312
G0 F10500 X138.276 Y21.883
G1 F2400 X139.932 Y20.226 E2882.87289
G0 F10500 X139.932 Y20.933
G1 F2400 X138.983 Y21.883 E2882.91288
G0 F10500 X139.690 Y21.883
G1 F2400 X139.932 Y21.641 E2882.92308
;LAYER:4
G0 F10500 X140.109 Y20.542 Z1.945
;TYPE:WALL-INNER
G1 F2100 X140.109 Y136.116 E2886.36526
G1 X21.610 Y136.116 E2889.89456
G1 X21.610 Y20.542 E2893.33675
G1 X140.109 Y20.542 E2896.86605
G0 F10500 X140.609 Y20.042
;TYPE:WALL-OUTER
G1 F1800 X140.609 Y136.616 E2900.33802
G1 X21.110 Y136.616 E2903.89710
G1 X21.110 Y20.042 E2907.36907
G1 X140.609 Y20.042 E2910.92815
G0 F10500 X140.259 Y20.302
G0 X138.539 Y21.867
;TYPE:FILL
G1 F2400 X139.933 Y23.260 E2910.98685
G0 F10500 X139.932 Y26.237
G1 F2400 X30.228 Y135.941 E2915.60759
G0 F10500 X33.410 Y135.940
G1 F2400 X21.785 Y124.315 E2916.09723
G0 F10500 X21.785 Y123.171
G1 F2400 X123.090 Y21.866 E2920.36420
G0 F10500 X124.397 Y21.867
G1 F2400 X139.933 Y37.403 E2921.01858
G0 F10500 X139.932 Y33.308
G1 F2400 X37.299 Y135.941 E2925.34149
G0 F10500 X26.339 Y135.940
G1 F2400 X21.785 Y131.386 E2925.53330
G0 F10500 X21.785 Y130.242
G1 F2400 X130.161 Y21.866 E2930.09811
G0 F10500 X131.468 Y21.867
G1 F2400 X139.933 Y30.332 E2930.45465
G0 F10500 X137.232 Y21.866
G1 F2400 X23.157 Y135.941 E2935.25950
G0 F10500 X40.481 Y135.940
G1 F2400 X21.785 Y117.244 E2936.04698
G0 F10500 X21.785 Y116.100
G1 F2400 X116.019 Y21.866 E2940.01612
G0 F10500 X117.326 Y21.867
G1 F2400 X139.933 Y44.474 E2940.96833
G0 F10500 X139.932 Y47.450
G1 F2400 X51.442 Y135.941 E2944.69555
G0 F10500 X54.623 Y135.940
G1 F2400 X21.785 Y103.102 E2946.07869
G0 F10500 X21.785 Y101.958
G1 F2400 X101.877 Y21.866 E2949.45217
G0 F10500 X103.184 Y21.867
G1 F2400 X139.933 Y58.616 E2951.00004
G0 F10500 X139.932 Y54.521
G1 F2400 X58.513 Y135.941 E2954.42944
G0 F10500 X47.552 Y135.940
G1 F2400 X21.785 Y110.173 E2955.51474
G0 F10500 X21.785 Y109.029
G1 F2400 X108.948 Y21.866 E2959.18605
G0 F10500 X110.255 Y21.867
G1 F2400 X139.933 Y51.545 E2960.43609
G0 F10500 X139.932 Y40.379
G1 F2400 X44.370 Y135.941 E2964.46117
G0 F10500 X61.694 Y135.940
G1 F2400 X21.785 Y96.031 E2966.14214
G0 F10500 X21.785 Y94.887
G1 F2400 X94.806 Y21.866 E2969.21779
G0 F10500 X96.113 Y21.867
G1 F2400 X139.933 Y65.687 E2971.06349
G0 F10500 X139.932 Y68.663
G1 F2400 X72.655 Y135.941 E2973.89722
G0 F10500 X75.836 Y135.940
G1 F2400 X21.785 Y81.889 E2976.17385
G0 F10500 X21.785 Y80.745
G1 F2400 X80.664 Y21.865 E2978.65386
G0 F10500 X81.971 Y21.867
G1 F2400 X139.933 Y79.829 E2981.09523
G0 F10500 X139.932 Y75.734
G1 F2400 X79.726 Y135.941 E2983.63113
G0 F10500 X68.765 Y135.940
G1 F2400 X21.785 Y88.960 E2985.60993
G0 F10500 X21.785 Y87.816
G1 F2400 X87.734 Y21.866 E2988.38772
G0 F10500 X89.042 Y21.867
G1 F2400 X139.933 Y72.758 E2990.53126
G0 F10500 X139.932 Y61.592
G1 F2400 X65.584 Y135.941 E2993.66282
G0 F10500 X82.907 Y135.940
G1 F2400 X21.785 Y74.818 E2996.23728
G0 F10500 X21.785 Y73.674
G1 F2400 X73.593 Y21.865 E2998.41946
G0 F10500 X74.899 Y21.866
G1 F2400 X139.933 Y86.900 E3001.15870
G0 F10500 X139.932 Y89.876
G1 F2400 X93.868 Y135.941 E3003.09893
G0 F10500 X97.049 Y135.940
G1 F2400 X21.785 Y60.676 E3006.26906
G0 F10500 X21.785 Y66.603
G1 F2400 X66.522 Y21.865 E3008.15341
G0 F10500 X67.828 Y21.866
G1 F2400 X139.933 Y93.971 E3011.19047
G0 F10500 X139.932 Y96.947
G1 F2400 X100.939 Y135.941 E3012.83288
G0 F10500 X104.120 Y135.940
G1 F2400 X21.785 Y53.605 E3016.30084
G0 F10500 X21.785 Y52.460
G1 F2400 X52.380 Y21.865 E3017.58950
G0 F10500 X53.686 Y21.866
G1 F2400 X139.933 Y108.113 E3021.22223
G0 F10500 X139.932 Y111.090
G1 F2400 X115.081 Y135.941 E3022.26895
G0 F10500 X118.262 Y135.940
G1 F2400 X21.785 Y39.462 E3026.33259
G0 F10500 X21.785 Y38.318
G1 F2400 X38.238 Y21.865 E3027.02559
G0 F10500 X39.544 Y21.866
G1 F2400 X139.933 Y122.255 E3031.25398
G0 F10500 X139.932 Y125.232
G1 F2400 X129.223 Y135.941 E3031.70505
G0 F10500 X132.405 Y135.940
G1 F2400 X21.785 Y25.320 E3036.36437
G0 F10500 X21.785 Y24.176
G1 F2400 X24.096 Y21.865 E3036.46171
G0 F10500 X25.402 Y21.866
G1 F2400 X139.476 Y135.940 E3041.26651
G0 F10500 X136.294 Y135.941
G1 F2400 X139.932 Y132.303 E3041.41975
G0 F10500 X139.933 Y129.327
G1 F2400 X32.473 Y21.866 E3045.94599
G0 F10500 X31.167 Y21.865
G1 F2400 X21.785 Y31.247 E3046.34116
G0 F10500 X21.785 Y32.391
G1 F2400 X125.333 Y135.940 E3050.70263
G0 F10500 X122.152 Y135.941
G1 F2400 X139.932 Y118.161 E3051.45152
G0 F10500 X139.933 Y115.184
G1 F2400 X46.615 Y21.866 E3055.38208
G0 F10500 X45.309 Y21.865
G1 F2400 X21.785 Y45.389 E3056.37292
G0 F10500 X21.785 Y46.533
G1 F2400 X111.191 Y135.940 E3060.13872
G0 F10500 X108.010 Y135.941
G1 F2400 X139.932 Y104.018 E3061.48330
G0 F10500 X139.933 Y101.042
G1 F2400 X60.757 Y21.866 E3064.81820
G0 F10500 X59.451 Y21.865
G1 F2400 X21.785 Y59.532 E3066.40471
G0 F10500 X21.785 Y67.747
G1 F2400 X89.978 Y135.940 E3069.27701
G0 F10500 X86.797 Y135.941
G1 F2400 X139.932 Y82.805 E3071.51508
G0 F10500 X139.542 Y22.516
;TYPE:SKIN
G1 F3000 X137.742 Y20.716 E3071.59089
G0 F10500 X137.035 Y20.716
G1 F3000 X138.835 Y22.516 E3071.66671
G0 F10500 X138.128 Y22.516
G1 F3000 X136.328 Y20.716 E3071.74253
G0 F10500 X135.621 Y20.716
G1 F3000 X137.421 Y22.516 E3071.81834
G0 F10500 X136.714 Y22.516
G1 F3000 X134.914 Y20.716 E3071.89416
G0 F10500 X134.207 Y20.716
G1 F3000 X136.007 Y22.516 E3071.96997
G0 F10500 X135.299 Y22.516
G1 F3000 X133.500 Y20.716 E3072.04577
G0 F10500 X132.793 Y20.716
G1 F3000 X134.592 Y22.516 E3072.12156
G0 F10500 X133.885 Y22.516
G1 F3000 X132.086 Y20.716 E3072.19736
G0 F10500 X131.379 Y20.716
G1 F3000 X133.178 Y22.516 E3072.27315
G0 F10500 X132.471 Y22.516
G1 F3000 X130.671 Y20.716 E3072.34897
G0 F10500 X129.964 Y20.716
G1 F3000 X131.764 Y22.516 E3072.42479
G0 F10500 X131.057 Y22.516
G1 F3000 X129.257 Y20.716 E3072.50060
G0 F10500 X128.550 Y20.716
G1 F3000 X130.350 Y22.516 E3072.57642
G0 F10500 X129.643 Y22.516
G1 F3000 X127.843 Y20.716 E3072.65223
G0 F10500 X127.136 Y20.716
G1 F3000 X128.935 Y22.516 E3072.72803
G0 F10500 X128.228 Y22.516
G1 F3000 X126.429 Y20.716 E3072.80383
G0 F10500 X125.722 Y20.716
G1 F3000 X127.521 Y22.516 E3072.87962
G0 F10500 X126.814 Y22.516
G1 F3000 X125.015 Y20.716 E3072.95542
G0 F10500 X124.307 Y20.716
G1 F3000 X126.107 Y22.516 E3073.03123
G0 F10500 X125.400 Y22.516
G1 F3000 X123.600 Y20.716 E3073.10705
G0 F10500 X122.893 Y20.716
G1 F3000 X124.693 Y22.516 E3073.18286
G0 F10500 X123.986 Y22.516
G1 F3000 X122.186 Y20.716 E3073.25868
G0 F10500 X121.479 Y20.716
G1 F3000 X123.279 Y22.516 E3073.33450
G0 F10500 X122.572 Y22.516
G1 F3000 X120.772 Y20.716 E3073.41031
G0 F10500 X120.065 Y20.716
G1 F3000 X121.864 Y22.516 E3073.48611
G0 F10500 X121.157 Y22.516
G1 F3000 X119.358 Y20.716 E3073.56190
G0 F10500 X118.651 Y20.716
G1 F3000 X120.450 Y22.516 E3073.63770
G0 F10500 X138.450 Y20.716
G1 F3000 X139.933 Y22.200 E3073.70018
G0 F10500 X139.933 Y21.493
G1 F3000 X139.157 Y20.716 E3073.73289
G0 F10500 X119.743 Y22.516
G1 F3000 X117.943 Y20.716 E3073.80870
G0 F10500 X117.236 Y20.716
G1 F3000 X119.036 Y22.516 E3073.88452
G0 F10500 X118.329 Y22.516
G1 F3000 X116.529 Y20.716 E3073.96034
G0 F10500 X115.822 Y20.716
G1 F3000 X117.622 Y22.516 E3074.03615
G0 F10500 X116.915 Y22.516
G1 F3000 X115.115 Y20.716 E3074.11197
G0 F10500 X114.408 Y20.716
G1 F3000 X116.208 Y22.516 E3074.18778
G0 F10500 X115.500 Y22.516
G1 F3000 X113.701 Y20.716 E3074.26358
G0 F10500 X112.994 Y20.716
G1 F3000 X114.793 Y22.516 E3074.33938
G0 F10500 X114.086 Y22.516
G1 F3000 X112.287 Y20.716 E3074.41517
G0 F10500 X111.580 Y20.716
G1 F3000 X113.379 Y22.516 E3074.49097
G0 F10500 X112.672 Y22.516
G1 F3000 X110.872 Y20.716 E3074.56678
G0 F10500 X110.165 Y20.716
G1 F3000 X111.965 Y22.516 E3074.64260
G0 F10500 X111.258 Y22.516
G1 F3000 X109.458 Y20.716 E3074.71841
G0 F10500 X108.751 Y20.716
G1 F3000 X110.551 Y22.516 E3074.79423
G0 F10500 X109.844 Y22.516
G1 F3000 X108.044 Y20.716 E3074.87005
G0 F10500 X107.337 Y20.716
G1 F3000 X109.136 Y22.516 E3074.94584
G0 F10500 X108.429 Y22.516
G1 F3000 X106.630 Y20.716 E3075.02164
G0 F10500 X105.923 Y20.716
G1 F3000 X107.722 Y22.516 E3075.09743
G0 F10500 X107.015 Y22.516
G1 F3000 X105.216 Y20.716 E3075.17323
G0 F10500 X104.508 Y20.716
G1 F3000 X106.308 Y22.516 E3075.24904
G0 F10500 X105.601 Y22.516
G1 F3000 X103.801 Y20.716 E3075.32486
G0 F10500 X103.094 Y20.716
G1 F3000 X104.894 Y22.516 E3075.40067
G0 F10500 X104.187 Y22.516
G1 F3000 X102.387 Y20.716 E3075.47649
G0 F10500 X101.680 Y20.716
G1 F3000 X103.480 Y22.516 E3075.55231
G0 F10500 X102.773 Y22.516
G1 F3000 X100.973 Y20.716 E3075.62812
G0 F10500 X100.266 Y20.716
G1 F3000 X102.065 Y22.516 E3075.70392
G0 F10500 X101.358 Y22.516
G1 F3000 X99.559 Y20.716 E3075.77971
G0 F10500 X98.852 Y20.716
G1 F3000 X100.651 Y22.516 E3075.85551
G0 F10500 X99.944 Y22.516
G1 F3000 X98.145 Y20.716 E3075.93130
G0 F10500 X97.437 Y20.716
G1 F3000 X99.237 Y22.516 E3076.00712
G0 F10500 X98.530 Y22.516
G1 F3000 X96.730 Y20.716 E3076.08294
G0 F10500 X96.023 Y20.716
G1 F3000 X97.823 Y22.516 E3076.15875
G0 F10500 X97.116 Y22.516
G1 F3000 X95.316 Y20.716 E3076.23457
G0 F10500 X94.609 Y20.716
G1 F3000 X96.409 Y22.516 E3076.31038
G0 F10500 X95.701 Y22.516
G1 F3000 X93.902 Y20.716 E3076.38618
G0 F10500 X93.195 Y20.716
G1 F3000 X94.994 Y22.516 E3076.46197
G0 F10500 X94.287 Y22.516
G1 F3000 X92.488 Y20.716 E3076.53777
G0 F10500 X91.781 Y20.716
G1 F3000 X93.580 Y22.516 E3076.61356
G0 F10500 X92.873 Y22.516
G1 F3000 X91.073 Y20.716 E3076.68938
G0 F10500 X90.366 Y20.716
G1 F3000 X92.166 Y22.516 E3076.76520
G0 F10500 X91.459 Y22.516
G1 F3000 X89.659 Y20.716 E3076.84101
G0 F10500 X88.952 Y20.716
G1 F3000 X90.752 Y22.516 E3076.91683
G0 F10500 X90.045 Y22.516
G1 F3000 X88.245 Y20.716 E3076.99264
G0 F10500 X87.538 Y20.716
G1 F3000 X89.337 Y22.516 E3077.06844
G0 F10500 X88.630 Y22.516
G1 F3000 X86.831 Y20.716 E3077.14423
G0 F10500 X86.124 Y20.716
G1 F3000 X87.923 Y22.516 E3077.22003
G0 F10500 X87.216 Y22.516
G1 F3000 X85.417 Y20.716 E3077.29582
G0 F10500 X84.709 Y20.716
G1 F3000 X86.509 Y22.516 E3077.37164
G0 F10500 X85.802 Y22.516
G1 F3000 X84.002 Y20.716 E3077.44746
G0 F10500 X83.295 Y20.716
G1 F3000 X85.095 Y22.516 E3077.52327
G0 F10500 X84.388 Y22.516
G1 F3000 X82.588 Y20.716 E3077.59909
G0 F10500 X81.881 Y20.716
G1 F3000 X83.681 Y22.516 E3077.67490
G0 F10500 X82.974 Y22.516
G1 F3000 X81.174 Y20.716 E3077.75072
G0 F10500 X80.467 Y20.716
G1 F3000 X82.266 Y22.516 E3077.82652
G0 F10500 X81.559 Y22.516
G1 F3000 X79.760 Y20.716 E3077.90231
G0 F10500 X79.053 Y20.716
G1 F3000 X80.852 Y22.516 E3077.97811
G0 F10500 X80.145 Y22.516
G1 F3000 X78.346 Y20.716 E3078.05390
G0 F10500 X77.638 Y20.716
G1 F3000 X79.438 Y22.516 E3078.12972
G0 F10500 X78.731 Y22.516
G1 F3000 X76.931 Y20.716 E3078.20553
G0 F10500 X76.224 Y20.716
G1 F3000 X78.024 Y22.516 E3078.28135
G0 F10500 X77.317 Y22.516
G1 F3000 X75.517 Y20.716 E3078.35717
G0 F10500 X74.810 Y20.716
G1 F3000 X76.610 Y22.516 E3078.43298
G0 F10500 X75.902 Y22.516
G1 F3000 X74.103 Y20.716 E3078.50878
G0 F10500 X73.396 Y20.716
G1 F3000 X75.195 Y22.516 E3078.58457
G0 F10500 X74.488 Y22.516
G1 F3000 X72.689 Y20.716 E3078.66037
G0 F10500 X71.982 Y20.716
G1 F3000 X73.781 Y22.516 E3078.73616
G0 F10500 X73.074 Y22.516
G1 F3000 X71.274 Y20.716 E3078.81198
G0 F10500 X70.567 Y20.716
G1 F3000 X72.367 Y22.516 E3078.88779
G0 F10500 X71.660 Y22.516
G1 F3000 X69.860 Y20.716 E3078.96361
G0 F10500 X69.153 Y20.716
G1 F3000 X70.953 Y22.516 E3079.03943
G0 F10500 X70.246 Y22.516
G1 F3000 X68.446 Y20.716 E3079.11524
G0 F10500 X67.739 Y20.716
G1 F3000 X69.539 Y22.516 E3079.19106
G0 F10500 X68.831 Y22.516
G1 F3000 X67.032 Y20.716 E3079.26685
G0 F10500 X66.325 Y20.716
G1 F3000 X68.124 Y22.516 E3079.34265
G0 F10500 X67.417 Y22.516
G1 F3000 X65.618 Y20.716 E3079.41844
G0 F10500 X64.910 Y20.716
G1 F3000 X66.710 Y22.516 E3079.49426
G0 F10500 X66.003 Y22.516
G1 F3000 X64.203 Y20.716 E3079.57008
G0 F10500 X63.496 Y20.716
G1 F3000 X65.296 Y22.516 E3079.64589
G0 F10500 X64.589 Y22.516
G1 F3000 X62.789 Y20.716 E3079.72171
G0 F10500 X62.082 Y20.716
G1 F3000 X63.882 Y22.516 E3079.79752
G0 F10500 X63.175 Y22.516
G1 F3000 X61.375 Y20.716 E3079.87334
G0 F10500 X60.668 Y20.716
G1 F3000 X62.467 Y22.516 E3079.94914
G0 F10500 X61.760 Y22.516
G1 F3000 X59.961 Y20.716 E3080.02493
G0 F10500 X59.254 Y20.716
G1 F3000 X61.053 Y22.516 E3080.10073
G0 F10500 X60.346 Y22.516
G1 F3000 X58.547 Y20.716 E3080.17652
G0 F10500 X57.839 Y20.716
G1 F3000 X59.639 Y22.516 E3080.25234
G0 F10500 X58.932 Y22.516
G1 F3000 X57.132 Y20.716 E3080.32815
G0 F10500 X56.425 Y20.716
G1 F3000 X58.225 Y22.516 E3080.40397
G0 F10500 X57.518 Y22.516
G1 F3000 X55.718 Y20.716 E3080.47979
G0 F10500 X55.011 Y20.716
G1 F3000 X56.811 Y22.516 E3080.55560
G0 F10500 X56.103 Y22.516
G1 F3000 X54.304 Y20.716 E3080.63140
G0 F10500 X53.597 Y20.716
G1 F3000 X55.396 Y22.516 E3080.70719
G0 F10500 X54.689 Y22.516
G1 F3000 X52.890 Y20.716 E3080.78299
G0 F10500 X52.183 Y20.716
G1 F3000 X53.982 Y22.516 E3080.85878
G0 F10500 X53.275 Y22.516
G1 F3000 X51.475 Y20.716 E3080.93460
G0 F10500 X50.768 Y20.716
G1 F3000 X52.568 Y22.516 E3081.01041
G0 F10500 X51.861 Y22.516
G1 F3000 X50.061 Y20.716 E3081.08623
G0 F10500 X49.354 Y20.716
G1 F3000 X51.154 Y22.516 E3081.16205
G0 F10500 X50.447 Y22.516
G1 F3000 X48.647 Y20.716 E3081.23786
G0 F10500 X47.940 Y20.716
G1 F3000 X49.740 Y22.516 E3081.31368
G0 F10500 X49.032 Y22.516
G1 F3000 X47.233 Y20.716 E3081.38947
G0 F10500 X46.526 Y20.716
G1 F3000 X48.325 Y22.516 E3081.46527
G0 F10500 X47.618 Y22.516
G1 F3000 X45.819 Y20.716 E3081.54106
G0 F10500 X45.111 Y20.716
G1 F3000 X46.911 Y22.516 E3081.61688
G0 F10500 X46.204 Y22.516
G1 F3000 X44.404 Y20.716 E3081.69270
G0 F10500 X43.697 Y20.716
G1 F3000 X45.497 Y22.516 E3081.76851
G0 F10500 X44.790 Y22.516
G1 F3000 X42.990 Y20.716 E3081.84433
G0 F10500 X42.283 Y20.716
G1 F3000 X44.083 Y22.516 E3081.92014
G0 F10500 X43.376 Y22.516
G1 F3000 X41.576 Y20.716 E3081.99596
G0 F10500 X40.869 Y20.716
G1 F3000 X42.668 Y22.516 E3082.07176
G0 F10500 X41.961 Y22.516
G1 F3000 X40.162 Y20.716 E3082.14755
G0 F10500 X39.455 Y20.716
G1 F3000 X41.254 Y22.516 E3082.22335
G0 F10500 X40.547 Y22.516
G1 F3000 X38.748 Y20.716 E3082.29914
G0 F10500 X38.040 Y20.716
G1 F3000 X39.840 Y22.516 E3082.37496
G0 F10500 X39.133 Y22.516
G1 F3000 X37.333 Y20.716 E3082.45077
G0 F10500 X36.626 Y20.716
G1 F3000 X38.426 Y22.516 E3082.52659
G0 F10500 X37.719 Y22.516
G1 F3000 X35.919 Y20.716 E3082.60240
G0 F10500 X35.212 Y20.716
G1 F3000 X37.012 Y22.516 E3082.67822
G0 F10500 X36.304 Y22.516
G1 F3000 X34.505 Y20.716 E3082.75402
G0 F10500 X33.798 Y20.716
G1 F3000 X35.597 Y22.516 E3082.82981
G0 F10500 X34.890 Y22.516
G1 F3000 X33.091 Y20.716 E3082.90561
G0 F10500 X32.384 Y20.716
G1 F3000 X34.183 Y22.516 E3082.98140
G0 F10500 X33.476 Y22.516
G1 F3000 X31.676 Y20.716 E3083.05722
G0 F10500 X30.969 Y20.716
G1 F3000 X32.769 Y22.516 E3083.13303
G0 F10500 X32.062 Y22.516
G1 F3000 X30.262 Y20.716 E3083.20885
G0 F10500 X29.555 Y20.716
G1 F3000 X31.355 Y22.516 E3083.28467
G0 F10500 X30.648 Y22.516
G1 F3000 X28.848 Y20.716 E3083.36048
G0 F10500 X28.141 Y20.716
G1 F3000 X29.941 Y22.516 E3083.43630
G0 F10500 X29.233 Y22.516
G1 F3000 X27.434 Y20.716 E3083.51209
G0 F10500 X26.727 Y20.716
G1 F3000 X28.526 Y22.516 E3083.58789
G0 F10500 X27.819 Y22.516
G1 F3000 X26.020 Y20.716 E3083.66368
G0 F10500 X25.313 Y20.716
G1 F3000 X27.112 Y22.516 E3083.73948
G0 F10500 X26.405 Y22.516
G1 F3000 X24.605 Y20.716 E3083.81529
G0 F10500 X23.898 Y20.716
G1 F3000 X25.698 Y22.516 E3083.89111
G0 F10500 X24.991 Y22.516
G1 F3000 X23.191 Y20.716 E3083.96693
G0 F10500 X22.484 Y20.716
G1 F3000 X24.284 Y22.516 E3084.04274
G0 F10500 X23.577 Y22.516
G1 F3000 X21.784 Y20.723 E3084.11826
G0 F10500 X21.784 Y21.430
G1 F3000 X22.869 Y22.516 E3084.16398
G0 F10500 X22.162 Y22.516
G1 F3000 X21.784 Y22.138 E3084.17991
;LAYER:5
G0 F10500 X21.610 Y21.176 Z2.325
;TYPE:WALL-INNER
G1 F2100 X140.109 Y21.175 E3087.70921
G1 X140.109 Y136.116 E3091.13254
G1 X21.610 Y136.116 E3094.66184
G1 X21.610 Y21.176 E3098.08514
G0 F10500 X21.110 Y20.676
;TYPE:WALL-OUTER
G1 F1800 X140.609 Y20.675 E3101.64423
G1 X140.609 Y136.616 E3105.09734
G1 X21.110 Y136.616 E3108.65643
G1 X21.110 Y20.676 E3112.10951
G0 F10500 X21.460 Y20.936
G0 X23.461 Y22.500
;TYPE:FILL
G1 F2400 X21.785 Y24.176 E3112.18010
G0 F10500 X21.784 Y25.320
G1 F2400 X132.405 Y135.940 E3116.83945
G0 F10500 X129.223 Y135.941
G1 F2400 X139.933 Y125.231 E3117.29055
G0 F10500 X139.933 Y122.255
G1 F2400 X40.177 Y22.500 E3121.49226
G0 F10500 X44.675 Y22.500
G1 F2400 X21.785 Y45.389 E3122.45637
G0 F10500 X21.784 Y46.533
G1 F2400 X111.191 Y135.940 E3126.22219
G0 F10500 X108.010 Y135.941
G1 F2400 X139.933 Y104.018 E3127.56679
G0 F10500 X139.933 Y101.042
G1 F2400 X61.391 Y22.500 E3130.87499
G0 F10500 X65.888 Y22.500
G1 F2400 X21.785 Y66.603 E3132.73261
G0 F10500 X21.784 Y67.746
G1 F2400 X89.978 Y135.940 E3135.60494
G0 F10500 X86.797 Y135.941
G1 F2400 X139.933 Y82.805 E3137.84304
G0 F10500 X139.933 Y86.900
G1 F2400 X75.533 Y22.500 E3140.55557
G0 F10500 X72.959 Y22.500
G1 F2400 X21.785 Y73.674 E3142.71102
G0 F10500 X21.784 Y74.817
G1 F2400 X82.907 Y135.940 E3145.28552
G0 F10500 X93.868 Y135.941
G1 F2400 X139.933 Y89.876 E3147.22578
G0 F10500 X139.933 Y93.971
G1 F2400 X68.462 Y22.500 E3150.23615
G0 F10500 X58.817 Y22.500
G1 F2400 X21.785 Y59.532 E3151.79594
G0 F10500 X21.784 Y53.604
G1 F2400 X104.120 Y135.940 E3155.26394
G0 F10500 X100.939 Y135.941
G1 F2400 X139.933 Y96.947 E3156.90636
G0 F10500 X139.933 Y108.113
G1 F2400 X54.319 Y22.500 E3160.51241
G0 F10500 X51.746 Y22.500
G1 F2400 X21.785 Y52.460 E3161.77435
G0 F10500 X21.784 Y60.675
G1 F2400 X97.049 Y135.940 E3164.94452
G0 F10500 X79.726 Y135.941
G1 F2400 X139.933 Y75.733 E3167.48046
G0 F10500 X139.933 Y72.758
G1 F2400 X89.675 Y22.500 E3169.59733
G0 F10500 X87.101 Y22.500
G1 F2400 X21.785 Y87.816 E3172.34844
G0 F10500 X21.784 Y88.959
G1 F2400 X68.765 Y135.940 E3174.32729
G0 F10500 X65.584 Y135.941
G1 F2400 X139.933 Y61.591 E3177.45889
G0 F10500 X139.933 Y65.687
G1 F2400 X96.746 Y22.500 E3179.27793
G0 F10500 X94.172 Y22.500
G1 F2400 X21.785 Y94.887 E3182.32688
G0 F10500 X21.784 Y96.030
G1 F2400 X61.694 Y135.940 E3184.00789
G0 F10500 X72.655 Y135.941
G1 F2400 X139.933 Y68.662 E3186.84166
G0 F10500 X139.933 Y79.829
G1 F2400 X82.604 Y22.500 E3189.25636
G0 F10500 X80.030 Y22.500
G1 F2400 X21.785 Y80.745 E3191.70965
G0 F10500 X21.784 Y81.888
G1 F2400 X75.836 Y135.940 E3193.98632
G0 F10500 X58.513 Y135.941
G1 F2400 X139.933 Y54.520 E3197.41576
G0 F10500 X139.933 Y51.545
G1 F2400 X110.888 Y22.500 E3198.63913
G0 F10500 X108.314 Y22.500
G1 F2400 X21.785 Y109.029 E3202.28374
G0 F10500 X21.784 Y110.172
G1 F2400 X47.552 Y135.940 E3203.36909
G0 F10500 X44.370 Y135.941
G1 F2400 X139.933 Y40.378 E3207.39421
G0 F10500 X139.933 Y44.474
G1 F2400 X117.959 Y22.500 E3208.31975
G0 F10500 X115.385 Y22.500
G1 F2400 X21.785 Y116.100 E3212.26219
G0 F10500 X21.784 Y117.243
G1 F2400 X40.481 Y135.940 E3213.04971
G0 F10500 X51.442 Y135.941
G1 F2400 X139.933 Y47.449 E3216.77698
G0 F10500 X139.933 Y58.616
G1 F2400 X103.817 Y22.500 E3218.29819
G0 F10500 X101.243 Y22.500
G1 F2400 X21.785 Y101.958 E3221.64496
G0 F10500 X21.784 Y103.101
G1 F2400 X54.623 Y135.940 E3223.02814
G0 F10500 X37.299 Y135.941
G1 F2400 X139.933 Y33.307 E3227.35109
G0 F10500 X139.933 Y30.332
G1 F2400 X132.101 Y22.500 E3227.68098
G0 F10500 X129.527 Y22.500
G1 F2400 X21.785 Y130.242 E3232.21908
G0 F10500 X21.784 Y131.386
G1 F2400 X26.339 Y135.940 E3232.41091
G0 F10500 X23.157 Y135.941
G1 F2400 X136.598 Y22.500 E3237.18906
G0 F10500 X139.172 Y22.500
G1 F2400 X139.933 Y23.260 E3237.22109
G0 F10500 X139.933 Y26.236
G1 F2400 X30.228 Y135.941 E3241.84187
G0 F10500 X33.410 Y135.940
G1 F2400 X21.784 Y124.315 E3242.33154
G0 F10500 X21.785 Y123.171
G1 F2400 X122.456 Y22.500 E3246.57180
G0 F10500 X125.030 Y22.500
G1 F2400 X139.933 Y37.403 E3247.19952
G0 F10500 X139.933 Y111.089
G1 F2400 X115.081 Y135.941 E3248.24629
G0 F10500 X118.262 Y135.940
G1 F2400 X21.784 Y39.462 E3252.30995
G0 F10500 X21.785 Y38.318
G1 F2400 X37.603 Y22.500 E3252.97620
G0 F10500 X33.106 Y22.500
G1 F2400 X139.933 Y129.327 E3257.47576
G0 F10500 X139.933 Y132.302
G1 F2400 X136.294 Y135.941 E3257.62904
G0 F10500 X139.476 Y135.940
G1 F2400 X26.035 Y22.500 E3262.40716
G0 F10500 X30.532 Y22.500
G1 F2400 X21.785 Y31.247 E3262.77558
G0 F10500 X21.784 Y32.391
G1 F2400 X125.333 Y135.940 E3267.13707
G0 F10500 X122.152 Y135.941
G1 F2400 X139.933 Y118.160 E3267.88601
G0 F10500 X139.933 Y115.184
G1 F2400 X47.248 Y22.500 E3271.78989
G0 F10500 X47.207 Y23.149
;TYPE:SKIN
G1 F3000 X49.006 Y21.350 E3271.86566
G0 F10500 X49.713 Y21.350
G1 F3000 X47.914 Y23.149 E3271.94143
G0 F10500 X48.621 Y23.149
G1 F3000 X50.420 Y21.350 E3272.01721
G0 F10500 X51.128 Y21.350
G1 F3000 X49.328 Y23.149 E3272.09300
G0 F10500 X50.035 Y23.149
G1 F3000 X51.835 Y21.350 E3272.16880
G0 F10500 X52.542 Y21.350
G1 F3000 X50.742 Y23.149 E3272.24459
G0 F10500 X51.449 Y23.149
G1 F3000 X53.249 Y21.350 E3272.32039
G0 F10500 X53.956 Y21.350
G1 F3000 X52.156 Y23.149 E3272.39618
G0 F10500 X52.864 Y23.149
G1 F3000 X54.663 Y21.350 E3272.47196
G0 F10500 X55.370 Y21.350
G1 F3000 X53.571 Y23.149 E3272.54773
G0 F10500 X54.278 Y23.149
G1 F3000 X56.077 Y21.350 E3272.62351
G0 F10500 X56.784 Y21.350
G1 F3000 X54.985 Y23.149 E3272.69928
G0 F10500 X55.692 Y23.149
G1 F3000 X57.492 Y21.350 E3272.77507
G0 F10500 X58.199 Y21.350
G1 F3000 X56.399 Y23.149 E3272.85087
G0 F10500 X57.106 Y23.149
